;FLAVOR:Marlin
;TIME:5773
;Filament used: 7.2509m
;Layer height: 0.3
;Generated with Cura_SteamEngine 3.6.0
M140 S40
M105
M190 S40
M104 S205
M105
M109 S205
M82 ;absolute extrusion mode
; Ender 3 Custom Start G-code
G28 ; Home all axes
G92 E0 ; Reset Extruder
G1 Z2.0 F3000 ; Move Z Axis up little to prevent scratching of Heat Bed
G1 X0.1 Y20 Z0.3 F5000.0 ; Move to start position
G1 X0.1 Y200.0 Z0.3 F1500.0 E15 ; Draw the first line
G1 X0.4 Y200.0 Z0.3 F5000.0 ; Move to side a little
G1 X0.4 Y20 Z0.3 F1500.0 E30 ; Draw the second line
G92 E0 ; Reset Extruder
G1 Z2.0 F3000 ; Move Z Axis up little to prevent scratching of Heat Bed
G90 ;absolute xyz mode
; End of custom start GCode
G92 E0
G1 F3000 E-10
;LAYER_COUNT:111
;LAYER:0
G91; Put in relative mode
G1 F3000 E-13; retract
G90; Put in absolute mode
G1 F9000 X0 Y232.0; Back Home
G4 P500; WaitG90; Put back in absolute mode
M107
M204 S5000
M205 X30 Y30
G0 F3600 X114.505 Y86.456 Z0.3
M204 S500
M205 X20 Y20
;TYPE:SUPPORT
G1 F3000 E0
G1 F1500 X114.683 Y86.278 E0.01256
G1 X129.464 Y86.278 E0.74999
G1 X129.464 Y89.58 E0.91472
G1 X130.108 Y90.224 E0.96016
G1 X131.452 Y90.224 E1.02721
G1 X131.452 Y92.029 E1.11727
G1 X115.853 Y92.029 E1.8955
G1 X115.737 Y91.913 E1.90369
G1 X115.737 Y90.44 E1.97718
G1 X114.504 Y89.208 E2.06413
G1 X114.505 Y86.456 E2.20143
M204 S5000
M205 X30 Y30
G0 F3600 X114.681 Y86.505
M204 S500
M205 X20 Y20
G1 F1500 X114.681 Y89.159 E2.33384
M204 S5000
M205 X30 Y30
G0 F3600 X114.665 Y88.011
M204 S500
M205 X20 Y20
G1 F1500 X129.304 Y88.011 E3.06418
M204 S5000
M205 X30 Y30
G0 F3600 X128.016 Y86.438
M204 S500
M205 X20 Y20
G1 F1500 X128.016 Y91.869 E3.33514
M204 S5000
M205 X30 Y30
G0 F3600 X125.349 Y91.869
M204 S500
M205 X20 Y20
G1 F1500 X125.349 Y86.438 E3.60609
M204 S5000
M205 X30 Y30
G0 F3600 X122.682 Y86.438
M204 S500
M205 X20 Y20
G1 F1500 X122.682 Y91.869 E3.87705
M204 S5000
M205 X30 Y30
G0 F3600 X120.015 Y91.869
M204 S500
M205 X20 Y20
G1 F1500 X120.015 Y86.438 E4.148
M204 S5000
M205 X30 Y30
G0 F3600 X117.348 Y86.438
M204 S500
M205 X20 Y20
G1 F1500 X117.348 Y91.869 E4.41895
M204 S5000
M205 X30 Y30
G0 F3600 X115.897 Y90.678
M204 S500
M205 X20 Y20
G1 F1500 X131.292 Y90.678 E5.18701
M204 S5000
M205 X30 Y30
G0 F3600 X130.683 Y90.384
M204 S500
M205 X20 Y20
G1 F1500 X130.683 Y91.869 E5.2611
M204 S5000
M205 X30 Y30
G1 F3000 E-4.7389
G0 F3600 X130.683 Y92.894
G0 X127.939 Y96.494
G0 X127.329 Y97.106
M204 S500
M205 X20 Y20
G1 F3000 E5.2611
G1 F1500 X127.445 Y97.222 E5.26928
G1 X127.445 Y101.116 E5.46356
G1 X115.736 Y101.116 E6.04772
G1 X115.738 Y97.287 E6.23875
G1 X115.919 Y97.106 E6.25152
G1 X127.329 Y97.106 E6.82077
M204 S5000
M205 X30 Y30
G0 F3600 X127.285 Y98.679
M204 S500
M205 X20 Y20
G1 F1500 X115.898 Y98.679 E7.38887
M204 S5000
M205 X30 Y30
G0 F3600 X117.348 Y97.266
M204 S500
M205 X20 Y20
G1 F1500 X117.348 Y100.956 E7.57296
M204 S5000
M205 X30 Y30
G0 F3600 X120.015 Y100.956
M204 S500
M205 X20 Y20
G1 F1500 X120.015 Y97.266 E7.75706
M204 S5000
M205 X30 Y30
G0 F3600 X122.682 Y97.266
M204 S500
M205 X20 Y20
G1 F1500 X122.682 Y100.956 E7.94115
M204 S5000
M205 X30 Y30
G0 F3600 X125.349 Y100.956
M204 S500
M205 X20 Y20
G1 F1500 X125.349 Y97.266 E8.12525
M204 S5000
M205 X30 Y30
G1 F3000 E-1.87475
G0 F3600 X125.349 Y96.241
G0 X127.685 Y96.245
G0 X128.187 Y96.747
G0 X131.687 Y101.116
G0 X137.521 Y101.116
M204 S500
M205 X20 Y20
G1 F3000 E8.12525
G1 F1500 X137.521 Y86.278 E8.86552
G1 X149.374 Y86.278 E9.45687
G1 X149.492 Y86.395 E9.46516
G1 X149.493 Y96.858 E9.98716
G1 X149.675 Y97.299 E10.01096
G1 X150.448 Y98.071 E10.06546
G1 X150.447 Y101.116 E10.21738
G1 X137.521 Y101.116 E10.86226
M204 S5000
M205 X30 Y30
G0 F3600 X138.684 Y100.956
M204 S500
M205 X20 Y20
G1 F1500 X138.684 Y86.439 E11.58652
M204 S5000
M205 X30 Y30
G0 F3600 X137.681 Y88.011
M204 S500
M205 X20 Y20
G1 F1500 X149.333 Y88.011 E12.16784
M204 S5000
M205 X30 Y30
G0 F3600 X149.333 Y90.678
M204 S500
M205 X20 Y20
G1 F1500 X137.681 Y90.678 E12.74916
M204 S5000
M205 X30 Y30
G0 F3600 X137.681 Y93.345
M204 S500
M205 X20 Y20
G1 F1500 X149.333 Y93.345 E13.33048
M204 S5000
M205 X30 Y30
G0 F3600 X149.333 Y96.012
M204 S500
M205 X20 Y20
G1 F1500 X137.681 Y96.012 E13.9118
M204 S5000
M205 X30 Y30
G0 F3600 X137.681 Y98.679
M204 S500
M205 X20 Y20
G1 F1500 X150.287 Y98.679 E14.54071
M204 S5000
M205 X30 Y30
G0 F3600 X149.352 Y96.937
M204 S500
M205 X20 Y20
G1 F1500 X149.352 Y100.956 E14.74122
M204 S5000
M205 X30 Y30
G0 F3600 X146.685 Y100.956
M204 S500
M205 X20 Y20
G1 F1500 X146.685 Y86.439 E15.46548
M204 S5000
M205 X30 Y30
G0 F3600 X144.018 Y86.439
M204 S500
M205 X20 Y20
G1 F1500 X144.018 Y100.956 E16.18974
M204 S5000
M205 X30 Y30
G0 F3600 X141.351 Y100.956
M204 S500
M205 X20 Y20
G1 F1500 X141.351 Y86.439 E16.91399
M204 S5000
M205 X30 Y30
G1 F3000 E6.91399
;MESH:CameraMountV3.stl
G0 F3600 X141.351 Y85.413
G0 X136.854 Y85.42
G0 X136.007 Y85.613
G0 X136.007 Y86.892
G0 X132.98 Y102.644
G0 X110.73 Y120.158
M204 S500
M205 X20 Y20
;TYPE:WALL-INNER
G1 F3000 E16.91399
G1 F1500 X110.349 Y119.591 E16.94807
G1 X109.937 Y119.049 E16.98204
G1 X109.49 Y118.533 E17.0161
G1 X109.012 Y118.046 E17.05014
G1 X108.506 Y117.589 E17.08416
G1 X107.97 Y117.163 E17.11832
G1 X107.411 Y116.774 E17.15229
G1 X106.83 Y116.419 E17.18626
G1 X106.224 Y116.1 E17.22043
G1 X105.606 Y115.823 E17.25422
G1 X105.055 Y115.61 E17.28369
G1 X104.407 Y115.403 E17.31763
G1 X103.743 Y115.236 E17.35179
G1 X103.073 Y115.111 E17.38579
G1 X102.395 Y115.028 E17.41987
G1 X101.716 Y114.988 E17.4538
G1 X101.032 Y114.989 E17.48793
G1 X100.351 Y115.034 E17.52198
G1 X99.674 Y115.12 E17.55602
G1 X99.004 Y115.247 E17.59004
G1 X98.343 Y115.415 E17.62407
G1 X97.692 Y115.626 E17.65821
G1 X97.057 Y115.875 E17.69224
G1 X96.439 Y116.164 E17.72628
G1 X95.84 Y116.491 E17.76032
G1 X95.262 Y116.854 E17.79438
G1 X94.707 Y117.25 E17.82839
G1 X94.179 Y117.683 E17.86246
G1 X93.679 Y118.147 E17.89649
G1 X93.207 Y118.64 E17.93054
G1 X92.77 Y119.159 E17.96439
G1 X92.416 Y119.631 E17.99383
G1 X92.039 Y120.198 E18.0278
G1 X91.698 Y120.79 E18.06188
G1 X91.394 Y121.401 E18.09593
G1 X91.13 Y122.03 E18.12996
G1 X90.902 Y122.676 E18.16414
G1 X90.719 Y123.331 E18.19807
G1 X90.573 Y123.998 E18.23213
G1 X90.472 Y124.674 E18.26623
G1 X90.411 Y125.354 E18.30029
G1 X90.394 Y126.036 E18.33433
G1 X90.419 Y126.718 E18.36838
G1 X90.484 Y127.395 E18.40231
G1 X90.593 Y128.071 E18.43647
G1 X90.743 Y128.736 E18.47048
G1 X90.933 Y129.391 E18.50451
G1 X91.166 Y130.034 E18.53863
G1 X91.437 Y130.659 E18.57261
G1 X91.745 Y131.268 E18.60666
G1 X92.09 Y131.854 E18.64059
G1 X92.417 Y132.343 E18.66993
G1 X92.826 Y132.887 E18.70389
G1 X93.269 Y133.407 E18.73797
G1 X93.747 Y133.897 E18.77212
G1 X94.251 Y134.355 E18.8061
G1 X94.785 Y134.783 E18.84024
G1 X95.343 Y135.174 E18.87423
G1 X95.922 Y135.532 E18.9082
G1 X96.525 Y135.853 E18.94228
G1 X97.146 Y136.136 E18.97632
G1 X97.782 Y136.38 E19.01031
G1 X98.435 Y136.586 E19.04447
G1 X99.099 Y136.746 E19.07855
G1 X99.109 Y136.747 E19.07905
G1 X99.769 Y136.869 E19.11253
G1 X100.448 Y136.949 E19.14664
G1 X101.127 Y136.986 E19.18057
G1 X101.811 Y136.982 E19.21469
G1 X102.492 Y136.934 E19.24875
G1 X103.168 Y136.845 E19.28277
G1 X103.837 Y136.714 E19.31678
G1 X104.494 Y136.543 E19.35065
G1 X105.056 Y136.363 E19.38009
G1 X105.692 Y136.119 E19.41408
G1 X106.312 Y135.832 E19.44816
G1 X106.913 Y135.508 E19.48222
G1 X107.493 Y135.148 E19.51628
G1 X108.049 Y134.753 E19.55031
G1 X108.579 Y134.324 E19.58433
G1 X109.083 Y133.861 E19.61847
G1 X109.556 Y133.371 E19.65245
G1 X109.997 Y132.852 E19.68643
G1 X110.407 Y132.305 E19.72053
G1 X110.78 Y131.733 E19.7546
G1 X111.118 Y131.143 E19.78852
G1 X111.42 Y130.529 E19.82266
G1 X111.681 Y129.898 E19.85673
G1 X111.903 Y129.253 E19.89076
G1 X112.086 Y128.596 E19.92479
G1 X112.227 Y127.928 E19.95885
G1 X112.325 Y127.256 E19.99273
G1 X112.376 Y126.678 E20.02168
G1 X112.378 Y126.666 E20.02228
G1 X112.4 Y125.987 E20.05618
G1 X112.379 Y125.307 E20.09012
G1 X112.317 Y124.626 E20.12423
G1 X112.211 Y123.951 E20.15832
G1 X112.064 Y123.285 E20.19235
G1 X111.876 Y122.629 E20.22639
G1 X111.648 Y121.984 E20.26053
G1 X111.379 Y121.357 E20.29456
G1 X111.073 Y120.749 E20.32852
G1 X110.73 Y120.158 E20.36261
M204 S5000
M205 X30 Y30
G0 F3600 X110.391 Y120.37
M204 S500
M205 X20 Y20
G1 F1500 X110.024 Y119.824 E20.39543
G1 X109.626 Y119.301 E20.42822
G1 X109.196 Y118.804 E20.46101
G1 X108.735 Y118.335 E20.49382
G1 X108.247 Y117.894 E20.52664
G1 X107.731 Y117.484 E20.55952
G1 X107.192 Y117.109 E20.59227
G1 X106.632 Y116.767 E20.62501
G1 X106.049 Y116.46 E20.65788
G1 X105.452 Y116.192 E20.69053
G1 X104.922 Y115.987 E20.71888
G1 X104.297 Y115.788 E20.75161
G1 X103.658 Y115.627 E20.78448
G1 X103.012 Y115.507 E20.81726
G1 X102.359 Y115.427 E20.85008
G1 X101.704 Y115.388 E20.88282
G1 X101.045 Y115.389 E20.9157
G1 X100.389 Y115.432 E20.9485
G1 X99.737 Y115.515 E20.98129
G1 X99.091 Y115.638 E21.0141
G1 X98.454 Y115.8 E21.04689
G1 X97.827 Y116.003 E21.07977
G1 X97.215 Y116.243 E21.11256
G1 X96.62 Y116.521 E21.14533
G1 X96.042 Y116.836 E21.17817
G1 X95.485 Y117.186 E21.21099
G1 X94.95 Y117.568 E21.24379
G1 X94.442 Y117.985 E21.27658
G1 X93.96 Y118.432 E21.30937
G1 X93.505 Y118.907 E21.34219
G1 X93.083 Y119.408 E21.37487
G1 X92.743 Y119.862 E21.40317
G1 X92.379 Y120.409 E21.43595
G1 X92.051 Y120.979 E21.46875
G1 X91.758 Y121.568 E21.50158
G1 X91.503 Y122.174 E21.53438
G1 X91.284 Y122.796 E21.56728
G1 X91.107 Y123.428 E21.60002
G1 X90.967 Y124.07 E21.6328
G1 X90.869 Y124.721 E21.66565
G1 X90.811 Y125.377 E21.6985
G1 X90.794 Y126.034 E21.73129
G1 X90.818 Y126.691 E21.76409
G1 X90.881 Y127.344 E21.79682
G1 X90.986 Y127.995 E21.82972
G1 X91.131 Y128.636 E21.86251
G1 X91.314 Y129.267 E21.89528
G1 X91.538 Y129.886 E21.92813
G1 X91.799 Y130.489 E21.96091
G1 X92.096 Y131.076 E21.99373
G1 X92.429 Y131.641 E22.02645
G1 X92.743 Y132.112 E22.05469
G1 X93.138 Y132.637 E22.08747
G1 X93.565 Y133.137 E22.12027
G1 X94.025 Y133.609 E22.15315
G1 X94.511 Y134.051 E22.18593
G1 X95.025 Y134.463 E22.21879
G1 X95.563 Y134.84 E22.25157
G1 X96.121 Y135.185 E22.2843
G1 X96.702 Y135.494 E22.31713
G1 X97.301 Y135.767 E22.34997
G1 X97.914 Y136.002 E22.38272
G1 X98.542 Y136.2 E22.41557
G1 X99.182 Y136.355 E22.44842
G1 X99.828 Y136.473 E22.48119
G1 X100.482 Y136.55 E22.51404
G1 X101.137 Y136.586 E22.54677
G1 X101.796 Y136.582 E22.57965
G1 X102.452 Y136.536 E22.61245
G1 X103.103 Y136.45 E22.64522
G1 X103.748 Y136.324 E22.678
G1 X104.383 Y136.159 E22.71074
G1 X104.923 Y135.986 E22.73902
G1 X105.536 Y135.75 E22.7718
G1 X106.133 Y135.474 E22.80461
G1 X106.712 Y135.162 E22.83742
G1 X107.271 Y134.815 E22.87025
G1 X107.807 Y134.434 E22.90306
G1 X108.318 Y134.021 E22.93584
G1 X108.803 Y133.575 E22.96871
G1 X109.259 Y133.102 E23.00149
G1 X109.684 Y132.602 E23.03422
G1 X110.079 Y132.075 E23.06708
G1 X110.439 Y131.524 E23.09992
G1 X110.765 Y130.955 E23.13264
G1 X111.055 Y130.364 E23.16548
G1 X111.307 Y129.756 E23.19832
G1 X111.521 Y129.134 E23.23113
G1 X111.697 Y128.501 E23.26391
G1 X111.833 Y127.858 E23.2967
G1 X111.928 Y127.209 E23.32942
G1 X111.979 Y126.642 E23.35783
G1 X112 Y125.987 E23.39052
G1 X111.98 Y125.331 E23.42326
G1 X111.92 Y124.675 E23.45613
G1 X111.818 Y124.025 E23.48895
G1 X111.676 Y123.383 E23.52176
G1 X111.495 Y122.751 E23.55456
G1 X111.275 Y122.13 E23.58742
G1 X111.016 Y121.526 E23.62021
G1 X110.721 Y120.939 E23.65299
G1 X110.391 Y120.37 E23.6858
M204 S5000
M205 X30 Y30
G0 F3600 X110.052 Y120.582
M204 S500
M205 X20 Y20
;TYPE:WALL-OUTER
G1 F1500 X109.699 Y120.057 E23.71737
G1 X109.315 Y119.553 E23.74898
G1 X108.902 Y119.075 E23.78049
G1 X108.458 Y118.624 E23.81207
G1 X107.988 Y118.199 E23.84368
G1 X107.492 Y117.805 E23.87528
G1 X106.973 Y117.444 E23.90682
G1 X106.434 Y117.115 E23.93833
G1 X105.874 Y116.82 E23.96991
G1 X105.298 Y116.561 E24.00142
G1 X104.789 Y116.365 E24.02863
G1 X104.187 Y116.173 E24.06015
G1 X103.573 Y116.018 E24.09174
G1 X102.951 Y115.903 E24.1233
G1 X102.323 Y115.826 E24.15487
G1 X101.692 Y115.788 E24.18641
G1 X101.058 Y115.789 E24.21804
G1 X100.427 Y115.83 E24.24958
G1 X99.8 Y115.91 E24.28112
G1 X99.178 Y116.029 E24.31271
G1 X98.565 Y116.185 E24.34427
G1 X97.962 Y116.38 E24.37589
G1 X97.373 Y116.611 E24.40745
G1 X96.8 Y116.878 E24.43899
G1 X96.244 Y117.181 E24.47058
G1 X95.708 Y117.518 E24.50217
G1 X95.194 Y117.886 E24.53371
G1 X94.705 Y118.287 E24.56526
G1 X94.241 Y118.717 E24.59682
G1 X93.803 Y119.175 E24.62844
G1 X93.396 Y119.657 E24.65991
G1 X93.07 Y120.093 E24.68707
G1 X92.719 Y120.62 E24.71866
G1 X92.404 Y121.168 E24.75019
G1 X92.122 Y121.735 E24.78179
G1 X91.876 Y122.318 E24.81336
G1 X91.666 Y122.916 E24.84498
G1 X91.495 Y123.525 E24.87653
G1 X91.361 Y124.143 E24.90808
G1 X91.266 Y124.768 E24.93962
G1 X91.211 Y125.4 E24.97127
G1 X91.194 Y126.032 E25.00281
G1 X91.217 Y126.664 E25.03437
G1 X91.278 Y127.293 E25.06589
G1 X91.379 Y127.919 E25.09753
G1 X91.518 Y128.536 E25.12908
G1 X91.695 Y129.143 E25.16063
G1 X91.91 Y129.739 E25.19224
G1 X92.161 Y130.319 E25.22377
G1 X92.447 Y130.884 E25.25536
G1 X92.768 Y131.428 E25.28687
G1 X93.07 Y131.881 E25.31404
G1 X93.45 Y132.387 E25.34561
G1 X93.861 Y132.867 E25.37713
G1 X94.303 Y133.321 E25.40874
G1 X94.771 Y133.747 E25.44032
G1 X95.265 Y134.143 E25.4719
G1 X95.783 Y134.506 E25.50346
G1 X96.32 Y134.838 E25.53496
G1 X96.879 Y135.135 E25.56654
G1 X97.456 Y135.398 E25.59818
G1 X98.046 Y135.624 E25.6297
G1 X98.65 Y135.814 E25.66129
G1 X99.265 Y135.964 E25.69287
G1 X99.887 Y136.077 E25.72441
G1 X100.516 Y136.151 E25.75601
G1 X101.147 Y136.186 E25.78753
G1 X101.781 Y136.182 E25.81917
G1 X102.412 Y136.138 E25.85072
G1 X103.038 Y136.055 E25.88223
G1 X103.659 Y135.934 E25.91379
G1 X104.272 Y135.775 E25.94539
G1 X104.79 Y135.609 E25.97252
G1 X105.38 Y135.381 E26.00408
G1 X105.954 Y135.116 E26.03562
G1 X106.511 Y134.816 E26.06719
G1 X107.049 Y134.482 E26.09878
G1 X107.565 Y134.115 E26.13037
G1 X108.057 Y133.718 E26.16191
G1 X108.523 Y133.289 E26.19351
G1 X108.962 Y132.833 E26.22509
G1 X109.371 Y132.352 E26.25659
G1 X109.751 Y131.845 E26.2882
G1 X110.098 Y131.315 E26.3198
G1 X110.411 Y130.767 E26.35129
G1 X110.69 Y130.199 E26.38286
G1 X110.933 Y129.614 E26.41446
G1 X111.139 Y129.015 E26.44607
G1 X111.308 Y128.406 E26.4776
G1 X111.439 Y127.787 E26.50916
G1 X111.531 Y127.162 E26.54068
G1 X111.58 Y126.618 E26.56793
G1 X111.6 Y125.987 E26.59943
G1 X111.581 Y125.355 E26.63097
G1 X111.523 Y124.724 E26.66259
G1 X111.425 Y124.099 E26.69415
G1 X111.288 Y123.481 E26.72573
G1 X111.114 Y122.873 E26.75728
G1 X110.902 Y122.276 E26.78889
G1 X110.653 Y121.695 E26.82042
G1 X110.369 Y121.129 E26.85202
G1 X110.052 Y120.582 E26.88356
M204 S5000
M205 X30 Y30
G0 F3600 X109.941 Y120.416
G0 X110.306 Y120.172
G0 X110.356 Y120.139
G0 X125.457 Y113.493
G0 X126.86 Y113.055
G0 X128.301 Y112.774
G0 X129.764 Y112.652
G0 X131.233 Y112.693
G0 X132.687 Y112.894
G0 X134.11 Y113.254
G0 X135.487 Y113.77
G0 X136.797 Y114.433
G0 X138.026 Y115.236
G0 X139.161 Y116.17
G0 X140.186 Y117.223
G0 X141.087 Y118.382
G0 X141.857 Y119.633
G0 X142.484 Y120.961
G0 X142.961 Y122.352
G0 X143.281 Y123.784
G0 X143.443 Y125.244
G0 X143.443 Y125.659
G0 X143.308 Y129.704
M204 S500
M205 X20 Y20
;TYPE:WALL-INNER
G1 F1500 X143.493 Y128.972 E26.92123
G1 X143.637 Y128.232 E26.95884
G1 X143.742 Y127.484 E26.99652
G1 X143.804 Y126.732 E27.03416
G1 X143.824 Y125.978 E27.0718
G1 X143.804 Y125.224 E27.10943
G1 X143.742 Y124.472 E27.14707
G1 X143.637 Y123.724 E27.18475
G1 X143.493 Y122.985 E27.22232
G1 X143.308 Y122.253 E27.25998
G1 X143.081 Y121.532 E27.2977
G1 X142.818 Y120.826 E27.33528
G1 X142.515 Y120.135 E27.37293
G1 X142.174 Y119.461 E27.41061
G1 X141.796 Y118.808 E27.44825
G1 X141.384 Y118.176 E27.48589
G1 X140.937 Y117.568 E27.52354
G1 X140.458 Y116.986 E27.56115
G1 X139.946 Y116.431 E27.59882
G1 X139.405 Y115.905 E27.63646
G1 X138.835 Y115.409 E27.67416
G1 X138.24 Y114.946 E27.71177
G1 X137.62 Y114.515 E27.74944
G1 X136.978 Y114.12 E27.78705
G1 X136.314 Y113.762 E27.82469
G1 X135.632 Y113.44 E27.86231
G1 X134.932 Y113.155 E27.90002
G1 X134.218 Y112.91 E27.93768
G1 X133.492 Y112.705 E27.97532
G1 X132.757 Y112.54 E28.0129
G1 X132.012 Y112.417 E28.05057
G1 X131.263 Y112.333 E28.08817
