;FLAVOR:Marlin
;TIME:1192
;Filament used: 1.31679m
;Layer height: 0.3
;Generated with Cura_SteamEngine 3.6.0
M140 S40
M105
M190 S40
M104 S205
M105
M109 S205
M82 ;absolute extrusion mode
; Ender 3 Custom Start G-code
G28 ; Home all axes
G92 E0 ; Reset Extruder
G1 Z2.0 F3000 ; Move Z Axis up little to prevent scratching of Heat Bed
G1 X0.1 Y20 Z0.3 F5000.0 ; Move to start position
G1 X0.1 Y200.0 Z0.3 F1500.0 E15 ; Draw the first line
G1 X0.4 Y200.0 Z0.3 F5000.0 ; Move to side a little
G1 X0.4 Y20 Z0.3 F1500.0 E30 ; Draw the second line
G92 E0 ; Reset Extruder
G1 Z2.0 F3000 ; Move Z Axis up little to prevent scratching of Heat Bed
G90 ;absolute xyz mode
; End of custom start GCode
G92 E0
G1 F3000 E-10
;LAYER_COUNT:72
;LAYER:0
M107
M204 S5000
M205 X30 Y30
G0 F3600 X118.981 Y103.44 Z0.3
M204 S500
M205 X20 Y20
;TYPE:SUPPORT
G1 F3000 E0
G1 F1500 X136.606 Y103.44 E0.87931
G1 X136.722 Y103.556 E0.8875
G1 X136.722 Y125.985 E2.00649
G1 X136.747 Y126.015 E2.00843
G1 X136.722 Y126.31 E2.02321
G1 X136.722 Y128.324 E2.12368
G1 X136.606 Y128.44 E2.13187
G1 X134.036 Y128.44 E2.26009
G1 X132.316 Y129.883 E2.3721
G1 X132.154 Y129.869 E2.38021
G1 X128.948 Y126.052 E2.6289
G1 X133.741 Y122.03 E2.94106
G1 X133.818 Y121.122 E2.98652
G1 X133.56 Y120.815 E3.00653
G1 X133.722 Y120.468 E3.02564
G1 X133.722 Y106.839 E3.70559
G1 X133.323 Y106.44 E3.73374
G1 X121.498 Y106.44 E4.32369
G1 X118.981 Y103.44 E4.51906
M204 S5000
M205 X30 Y30
G0 F3600 X119.671 Y104.013
M204 S500
M205 X20 Y20
G1 F1500 X136.562 Y104.013 E5.36176
M204 S5000
M205 X30 Y30
G0 F3600 X136.017 Y103.6
M204 S500
M205 X20 Y20
G1 F1500 X136.017 Y128.28 E6.59305
M204 S5000
M205 X30 Y30
G0 F3600 X136.562 Y128.016
M204 S500
M205 X20 Y20
G1 F1500 X130.806 Y128.016 E6.88022
M204 S5000
M205 X30 Y30
G0 F3600 X130.683 Y127.868
M204 S500
M205 X20 Y20
G1 F1500 X130.683 Y124.805 E7.03303
M204 S5000
M205 X30 Y30
G0 F3600 X130.034 Y125.349
M204 S500
M205 X20 Y20
G1 F1500 X136.562 Y125.349 E7.35871
M204 S5000
M205 X30 Y30
G0 F3600 X136.562 Y122.682
M204 S500
M205 X20 Y20
G1 F1500 X133.212 Y122.682 E7.52585
M204 S5000
M205 X30 Y30
G0 F3600 X133.35 Y122.566
M204 S500
M205 X20 Y20
G1 F1500 X133.35 Y128.807 E7.83721
M204 S5000
M205 X30 Y30
G1 F3000 E-2.16279
G0 F3600 X134.009 Y129.591
G0 X134.002 Y129.548
G0 X133.997 Y129.504
G0 X132.871 Y120.389
G0 X132.866 Y120.345
G0 X132.858 Y120.277
G0 X133.882 Y120.015
M204 S500
M205 X20 Y20
G1 F3000 E7.83721
G1 F1500 X136.562 Y120.015 E7.97092
M204 S5000
M205 X30 Y30
G0 F3600 X136.562 Y117.348
M204 S500
M205 X20 Y20
G1 F1500 X133.882 Y117.348 E8.10462
M204 S5000
M205 X30 Y30
G0 F3600 X133.882 Y114.681
M204 S500
M205 X20 Y20
G1 F1500 X136.562 Y114.681 E8.23833
M204 S5000
M205 X30 Y30
G0 F3600 X136.562 Y112.014
M204 S500
M205 X20 Y20
G1 F1500 X133.882 Y112.014 E8.37203
M204 S5000
M205 X30 Y30
G0 F3600 X133.882 Y109.347
M204 S500
M205 X20 Y20
G1 F1500 X136.562 Y109.347 E8.50574
M204 S5000
M205 X30 Y30
G0 F3600 X136.562 Y106.68
M204 S500
M205 X20 Y20
G1 F1500 X133.791 Y106.68 E8.64399
M204 S5000
M205 X30 Y30
G0 F3600 X133.35 Y106.28
M204 S500
M205 X20 Y20
G1 F1500 X133.35 Y103.6 E8.77769
M204 S5000
M205 X30 Y30
G0 F3600 X130.683 Y103.6
M204 S500
M205 X20 Y20
G1 F1500 X130.683 Y106.28 E8.9114
M204 S5000
M205 X30 Y30
G0 F3600 X128.016 Y106.28
M204 S500
M205 X20 Y20
G1 F1500 X128.016 Y103.6 E9.0451
M204 S5000
M205 X30 Y30
G0 F3600 X125.349 Y103.6
M204 S500
M205 X20 Y20
G1 F1500 X125.349 Y106.28 E9.17881
M204 S5000
M205 X30 Y30
G0 F3600 X122.682 Y106.28
M204 S500
M205 X20 Y20
G1 F1500 X122.682 Y103.6 E9.31251
M204 S5000
M205 X30 Y30
G0 F3600 X120.015 Y103.6
M204 S500
M205 X20 Y20
G1 F1500 X120.015 Y104.423 E9.35357
M204 S5000
M205 X30 Y30
G1 F3000 E-0.64643
;MESH:MotorMounterv2.stl
G0 F3600 X118.743 Y105.489
G0 X114.624 Y100.735
G0 X114.701 Y100.672
M204 S500
M205 X20 Y20
;TYPE:WALL-INNER
G1 F3000 E9.35357
G1 F1500 X132.121 Y121.432 E10.70562
G1 X116.723 Y134.353 E11.70846
G1 X116.57 Y134.481 E11.71842
G1 X116.442 Y134.328 E11.72484
G1 X99.022 Y113.568 E13.07689
G1 X114.42 Y100.647 E14.07973
G1 X114.573 Y100.519 E14.08969
G1 X114.701 Y100.672 E14.09611
M204 S5000
M205 X30 Y30
G0 F3600 X114.75 Y100.109
M204 S500
M205 X20 Y20
;TYPE:WALL-OUTER
G1 F1500 X132.684 Y121.481 E15.48803
G1 X116.674 Y134.916 E16.53075
G1 X116.521 Y135.044 E16.5407
G1 X116.393 Y134.891 E16.54713
G1 X98.459 Y113.519 E17.93905
G1 X114.469 Y100.084 E18.98176
G1 X114.622 Y99.956 E18.99171
G1 X114.75 Y100.109 E18.99814
M204 S5000
M205 X30 Y30
G0 F3600 X114.878 Y100.262
G0 X114.565 Y100.618
G0 X114.525 Y101.069
M204 S500
M205 X20 Y20
;TYPE:SKIN
G1 F1500 X131.571 Y121.384 E20.32119
G1 X116.618 Y133.931 E21.29503
G1 X99.572 Y113.616 E22.61807
G1 X114.525 Y101.069 E23.59192
M204 S5000
M205 X30 Y30
G0 F3600 X118.08 Y120.201
M204 S500
M205 X20 Y20
G1 F1500 X117.794 Y120.441 E23.61054
G1 X113.063 Y114.799 E23.97789
G1 X113.349 Y114.559 E23.99652
G1 X118.08 Y120.201 E24.36386
M204 S5000
M205 X30 Y30
G0 F3600 X118.643 Y120.25
M204 S500
M205 X20 Y20
G1 F1500 X117.744 Y121.005 E24.42243
G1 X112.5 Y114.75 E24.82965
G1 X113.399 Y113.995 E24.88822
G1 X118.643 Y120.25 E25.29545
M204 S5000
M205 X30 Y30
G0 F3600 X119.207 Y120.299
M204 S500
M205 X20 Y20
G1 F1500 X117.694 Y121.568 E25.39397
G1 X111.936 Y114.701 E25.84106
G1 X113.449 Y113.432 E25.93958
G1 X119.207 Y120.299 E26.38668
M204 S5000
M205 X30 Y30
G0 F3600 X119.771 Y120.349
M204 S500
M205 X20 Y20
G1 F1500 X117.645 Y122.131 E26.52507
G1 X111.372 Y114.651 E27.01211
G1 X113.498 Y112.869 E27.15051
G1 X119.771 Y120.349 E27.63755
M204 S5000
M205 X30 Y30
G0 F3600 X120.334 Y120.398
M204 S500
M205 X20 Y20
G1 F1500 X117.596 Y122.694 E27.81582
G1 X110.809 Y114.602 E28.34273
G1 X113.547 Y112.306 E28.52101
G1 X120.334 Y120.398 E29.04792
M204 S5000
M205 X30 Y30
G0 F3600 X120.898 Y120.448
M204 S500
M205 X20 Y20
G1 F1500 X117.547 Y123.257 E29.26607
G1 X110.245 Y114.552 E29.83292
G1 X113.596 Y111.743 E30.05107
G1 X120.898 Y120.448 E30.61793
M204 S5000
M205 X30 Y30
G0 F3600 X121.461 Y120.498
M204 S500
M205 X20 Y20
G1 F1500 X117.498 Y123.821 E30.87595
G1 X109.682 Y114.502 E31.48276
G1 X113.645 Y111.179 E31.74078
G1 X121.461 Y120.498 E32.34758
M204 S5000
M205 X30 Y30
G0 F3600 X122.025 Y120.548
M204 S500
M205 X20 Y20
G1 F1500 X117.449 Y124.384 E32.64549
G1 X109.118 Y114.452 E33.29223
G1 X113.694 Y110.616 E33.59013
G1 X122.025 Y120.548 E34.23688
M204 S5000
M205 X30 Y30
G0 F3600 X122.588 Y120.598
M204 S500
M205 X20 Y20
G1 F1500 X117.4 Y124.948 E34.57466
G1 X108.555 Y114.402 E35.26135
G1 X113.743 Y110.052 E35.59913
G1 X122.588 Y120.598 E36.28583
M204 S5000
M205 X30 Y30
G0 F3600 X123.152 Y120.648
M204 S500
M205 X20 Y20
G1 F1500 X117.351 Y125.511 E36.66348
G1 X107.991 Y114.352 E37.39012
G1 X113.792 Y109.489 E37.76777
G1 X123.152 Y120.648 E38.49441
M204 S5000
M205 X30 Y30
G0 F3600 X123.715 Y120.698
M204 S500
M205 X20 Y20
G1 F1500 X117.302 Y126.075 E38.91194
G1 X107.428 Y114.302 E39.67853
G1 X113.841 Y108.925 E40.09606
G1 X123.715 Y120.698 E40.86265
M204 S5000
M205 X30 Y30
G0 F3600 X124.278 Y120.747
M204 S500
M205 X20 Y20
G1 F1500 X117.253 Y126.638 E41.32004
G1 X106.865 Y114.253 E42.12651
G1 X113.89 Y108.362 E42.58391
G1 X124.278 Y120.747 E43.39037
M204 S5000
M205 X30 Y30
G0 F3600 X124.842 Y120.797
M204 S500
M205 X20 Y20
G1 F1500 X117.204 Y127.201 E43.88765
G1 X106.301 Y114.203 E44.73405
G1 X113.939 Y107.799 E45.23133
G1 X124.842 Y120.797 E46.07774
M204 S5000
M205 X30 Y30
G0 F3600 X125.405 Y120.847
M204 S500
M205 X20 Y20
G1 F1500 X117.155 Y127.765 E46.61489
G1 X105.738 Y114.153 E47.50124
G1 X113.988 Y107.235 E48.03839
G1 X125.405 Y120.847 E48.92475
M204 S5000
M205 X30 Y30
G0 F3600 X125.968 Y120.896
M204 S500
M205 X20 Y20
G1 F1500 X117.106 Y128.328 E49.50177
G1 X105.175 Y114.104 E50.428
G1 X114.037 Y106.672 E51.00502
G1 X125.968 Y120.896 E51.93125
M204 S5000
M205 X30 Y30
G0 F3600 X126.531 Y120.945
M204 S500
M205 X20 Y20
G1 F1500 X117.057 Y128.891 E52.54815
G1 X104.612 Y114.055 E53.51425
G1 X114.086 Y106.109 E54.13115
G1 X126.531 Y120.945 E55.09725
M204 S5000
M205 X30 Y30
G0 F3600 X127.094 Y120.994
M204 S500
M205 X20 Y20
G1 F1500 X117.008 Y129.454 E55.75402
G1 X104.049 Y114.006 E56.75999
G1 X114.135 Y105.546 E57.41676
G1 X127.094 Y120.994 E58.42273
M204 S5000
M205 X30 Y30
G0 F3600 X127.657 Y121.043
M204 S500
M205 X20 Y20
G1 F1500 X116.959 Y130.017 E59.11937
G1 X103.486 Y113.957 E60.16522
G1 X114.184 Y104.983 E60.86186
G1 X127.657 Y121.043 E61.90771
M204 S5000
M205 X30 Y30
G0 F3600 X128.22 Y121.092
M204 S500
M205 X20 Y20
G1 F1500 X116.91 Y130.58 E62.64422
G1 X102.923 Y113.908 E63.72994
G1 X114.233 Y104.42 E64.46646
G1 X128.22 Y121.092 E65.55218
M204 S5000
M205 X30 Y30
G0 F3600 X128.783 Y121.141
M204 S500
M205 X20 Y20
G1 F1500 X116.861 Y131.143 E66.32857
G1 X102.36 Y113.859 E67.45416
G1 X114.282 Y103.857 E68.23055
G1 X128.783 Y121.141 E69.35614
M204 S5000
M205 X30 Y30
G0 F3600 X129.346 Y121.19
M204 S500
M205 X20 Y20
G1 F1500 X116.812 Y131.706 E70.1724
G1 X101.797 Y113.81 E71.33786
G1 X114.331 Y103.294 E72.15413
G1 X129.346 Y121.19 E73.31959
M204 S5000
M205 X30 Y30
G0 F3600 X129.909 Y121.239
M204 S500
M205 X20 Y20
G1 F1500 X116.763 Y132.269 E74.17572
G1 X101.234 Y113.761 E75.38106
G1 X114.38 Y102.731 E76.2372
G1 X129.909 Y121.239 E77.44253
M204 S5000
M205 X30 Y30
G0 F3600 X130.472 Y121.288
M204 S500
M205 X20 Y20
G1 F1500 X116.714 Y132.832 E78.33854
G1 X100.671 Y113.712 E79.58375
G1 X114.429 Y102.168 E80.47976
G1 X130.472 Y121.288 E81.72497
M204 S5000
M205 X30 Y30
G0 F3600 X131.035 Y121.337
M204 S500
M205 X20 Y20
G1 F1500 X116.665 Y133.395 E82.66085
G1 X100.108 Y113.663 E83.94593
G1 X114.478 Y101.605 E84.88181
G1 X131.035 Y121.337 E86.16689
M204 S5000
M205 X30 Y30
G1 F3000 E76.16689
;MESH:NONMESH
G0 F3600 X118.85 Y105.646
G0 X120.015 Y104.672
;TIME_ELAPSED:82.164772
;LAYER:1
M140 S40
M106 S255
G0 F5400 X120.015 Y104.672 Z0.6
M204 S500
M205 X20 Y20
;TYPE:SUPPORT
G1 F3000 E86.16689
G1 F2250 X121.498 Y106.44 E86.28202
G1 X122.682 Y106.44 E86.34109
G1 X122.682 Y103.44 E86.49076
G1 X125.349 Y103.44 E86.62382
G1 X125.349 Y106.44 E86.77349
G1 X128.016 Y106.44 E86.90655
G1 X128.016 Y103.44 E87.05622
G1 X130.683 Y103.44 E87.18927
G1 X130.683 Y106.44 E87.33894
G1 X133.323 Y106.44 E87.47065
G1 X133.35 Y106.467 E87.47256
G1 X133.35 Y103.44 E87.62358
G1 X136.017 Y103.44 E87.75663
G1 X136.017 Y128.44 E89.00389
G1 X136.606 Y128.44 E89.03328
G1 X136.722 Y128.324 E89.04146
G1 X136.722 Y126.31 E89.14194
G1 X136.747 Y126.015 E89.15671
G1 X136.722 Y125.985 E89.15866
G1 X136.722 Y103.556 E90.27764
G1 X136.606 Y103.44 E90.28583
G1 X136.017 Y103.44 E90.31521
M204 S5000
M205 X30 Y30
G1 F3000 E80.31521
G0 F5400 X136.017 Y102.575
G0 X135.992 Y102.611
G0 X135.967 Y102.648
G0 X132.91 Y107.23
G0 X132.886 Y107.267
G0 X132.869 Y107.293
G0 X133.35 Y106.467
M204 S500
M205 X20 Y20
G1 F3000 E90.31521
G1 F2250 X133.722 Y106.839 E90.34146
G1 X133.722 Y120.468 E91.02141
G1 X133.56 Y120.815 E91.04052
G1 X133.818 Y121.122 E91.06053
G1 X133.741 Y122.03 E91.10599
G1 X133.35 Y122.358 E91.13145
G1 X133.35 Y129.016 E91.46362
G1 X132.316 Y129.883 E91.53094
G1 X132.154 Y129.869 E91.53905
G1 X130.683 Y128.117 E91.65319
G1 X130.683 Y124.596 E91.82885
G1 X128.948 Y126.052 E91.94185
G1 X130.683 Y128.117 E92.07641
M204 S5000
M205 X30 Y30
G1 F3000 E82.07641
G0 F5400 X130.021 Y128.673
G0 X131.724 Y130.697
G0 X132.598 Y130.772
G0 X136.962 Y129.301
G0 X137.583 Y128.68
G0 X137.635 Y125.733
G0 X137.583 Y103.2
G0 X136.962 Y102.579
G0 X120.015 Y102.575
G0 X120.015 Y104.672
M204 S500
M205 X20 Y20
G1 F3000 E92.07641
G1 F2250 X118.981 Y103.44 E92.15665
G1 X120.015 Y103.44 E92.20824
G1 X120.015 Y104.672 E92.2697
M204 S5000
M205 X30 Y30
G1 F3000 E82.2697
;MESH:MotorMounterv2.stl
G0 F5400 X118.85 Y105.646
G0 X114.624 Y100.735
G0 X114.701 Y100.672
M204 S500
M205 X20 Y20
;TYPE:WALL-INNER
G1 F3000 E92.2697
G1 F2250 X132.121 Y121.432 E93.62175
G1 X116.723 Y134.353 E94.62459
G1 X116.57 Y134.481 E94.63455
G1 X116.442 Y134.328 E94.64097
G1 X99.022 Y113.568 E95.99302
G1 X114.42 Y100.647 E96.99586
G1 X114.573 Y100.519 E97.00582
G1 X114.701 Y100.672 E97.01224
M204 S5000
M205 X30 Y30
G0 F5400 X114.75 Y100.109
M204 S500
M205 X20 Y20
;TYPE:WALL-OUTER
G1 F1500 X132.684 Y121.481 E98.40416
G1 X116.674 Y134.916 E99.44688
G1 X116.521 Y135.044 E99.45683
G1 X116.393 Y134.891 E99.46326
G1 X98.459 Y113.519 E100.85518
G1 X114.469 Y100.084 E101.89789
G1 X114.622 Y99.956 E101.90784
G1 X114.75 Y100.109 E101.91427
M204 S5000
M205 X30 Y30
G0 F5400 X114.878 Y100.262
G0 X114.565 Y100.618
G0 X114.525 Y101.069
M204 S500
M205 X20 Y20
;TYPE:SKIN
G1 F1500 X131.571 Y121.384 E103.23732
G1 X116.618 Y133.931 E104.21116
G1 X99.572 Y113.616 E105.5342
G1 X114.525 Y101.069 E106.50805
M204 S5000
M205 X30 Y30
G0 F5400 X100.107 Y113.661
M204 S500
M205 X20 Y20
G1 F1500 X100.135 Y113.693 E106.51017
G1 X100.477 Y113.351 E106.5343
G1 X103.992 Y110.401 E106.76324
G1 X100.393 Y114.001 E107.0172
G1 X100.651 Y114.308 E107.03721
G1 X107.508 Y107.451 E107.52101
G1 X111.023 Y104.502 E107.74992
G1 X100.909 Y114.616 E108.46351
G1 X101.167 Y114.923 E108.48352
G1 X114.481 Y101.61 E109.42286
G1 X114.739 Y101.918 E109.4429
G1 X101.425 Y115.231 E110.38224
G1 X101.684 Y115.539 E110.40232
G1 X114.997 Y102.225 E111.34166
G1 X115.255 Y102.533 E111.3617
G1 X101.942 Y115.846 E112.30101
G1 X102.2 Y116.154 E112.32105
G1 X115.513 Y102.84 E113.26039
G1 X115.771 Y103.148 E113.28044
G1 X102.458 Y116.461 E114.21974
G1 X102.716 Y116.769 E114.23979
G1 X116.029 Y103.456 E115.17909
G1 X116.287 Y103.763 E115.1991
G1 X102.974 Y117.077 E116.13844
G1 X103.232 Y117.384 E116.15844
G1 X116.546 Y104.071 E117.09778
G1 X116.804 Y104.378 E117.11779
G1 X103.49 Y117.692 E118.05716
G1 X103.748 Y117.999 E118.07717
G1 X117.062 Y104.686 E119.01651
G1 X117.32 Y104.994 E119.03655
G1 X104.006 Y118.307 E119.97589
G1 X104.265 Y118.615 E119.99597
G1 X117.578 Y105.301 E120.93531
G1 X117.836 Y105.609 E120.95536
G1 X104.523 Y118.922 E121.89466
G1 X104.781 Y119.23 E121.9147
G1 X118.094 Y105.916 E122.85404
G1 X118.352 Y106.224 E122.87409
G1 X105.039 Y119.537 E123.81339
G1 X105.297 Y119.845 E123.83344
G1 X118.61 Y106.532 E124.77274
G1 X118.868 Y106.839 E124.79275
G1 X105.555 Y120.152 E125.73205
G1 X105.813 Y120.46 E125.7521
G1 X119.126 Y107.147 E126.6914
G1 X119.385 Y107.454 E126.71144
G1 X106.071 Y120.768 E127.65081
G1 X106.329 Y121.075 E127.67082
G1 X119.643 Y107.762 E128.61016
G1 X119.901 Y108.069 E128.63017
G1 X106.587 Y121.383 E129.56954
G1 X106.845 Y121.69 E129.58955
G1 X120.159 Y108.377 E130.52889
G1 X120.417 Y108.685 E130.54893
G1 X107.104 Y121.998 E131.48824
G1 X107.362 Y122.306 E131.50828
G1 X120.675 Y108.992 E132.44762
G1 X120.933 Y109.3 E132.46767
G1 X107.62 Y122.613 E133.40697
G1 X107.878 Y122.921 E133.42702
G1 X121.191 Y109.607 E134.36635
G1 X121.449 Y109.915 E134.3864
G1 X108.136 Y123.228 E135.3257
G1 X108.394 Y123.536 E135.34575
G1 X121.707 Y110.223 E136.28505
G1 X121.966 Y110.53 E136.30509
G1 X108.652 Y123.844 E137.24447
G1 X108.91 Y124.151 E137.26447
G1 X122.224 Y110.838 E138.20381
G1 X122.482 Y111.145 E138.22382
G1 X109.168 Y124.459 E139.16319
G1 X109.426 Y124.766 E139.1832
G1 X122.74 Y111.453 E140.12254
G1 X122.998 Y111.761 E140.14258
G1 X109.684 Y125.074 E141.08192
G1 X109.943 Y125.382 E141.102
G1 X123.256 Y112.068 E142.04134
G1 X123.514 Y112.376 E142.06139
G1 X110.201 Y125.689 E143.00069
G1 X110.459 Y125.997 E143.02073
G1 X123.772 Y112.683 E143.96007
G1 X124.03 Y112.991 E143.98012
G1 X110.717 Y126.304 E144.91942
G1 X110.975 Y126.612 E144.93947
G1 X124.288 Y113.299 E145.87877
G1 X124.546 Y113.606 E145.89878
G1 X111.233 Y126.92 E146.83812
G1 X111.491 Y127.227 E146.85812
G1 X124.805 Y113.914 E147.79746
G1 X125.063 Y114.221 E147.81747
G1 X111.749 Y127.535 E148.75684
G1 X112.007 Y127.842 E148.77685
G1 X125.321 Y114.529 E149.71619
G1 X125.579 Y114.836 E149.7362
G1 X112.265 Y128.15 E150.67557
G1 X112.524 Y128.457 E150.69561
G1 X125.837 Y115.144 E151.63492
G1 X126.095 Y115.452 E151.65496
G1 X112.782 Y128.765 E152.59426
G1 X113.04 Y129.073 E152.61431
G1 X126.353 Y115.759 E153.55365
G1 X126.611 Y116.067 E153.57369
G1 X113.298 Y129.38 E154.513
G1 X113.556 Y129.688 E154.53304
G1 X126.869 Y116.374 E155.47238
