;FLAVOR:Marlin
;TIME:957
;Filament used: 1.30533m
;Layer height: 0.3
;Generated with Cura_SteamEngine 3.6.0
M140 S40
M105
M190 S40
M104 S205
M105
M109 S205
M82 ;absolute extrusion mode
; Ender 3 Custom Start G-code
G28 ; Home all axes
G92 E0 ; Reset Extruder
G1 Z2.0 F3000 ; Move Z Axis up little to prevent scratching of Heat Bed
G1 X0.1 Y20 Z0.3 F5000.0 ; Move to start position
G1 X0.1 Y200.0 Z0.3 F1500.0 E15 ; Draw the first line
G1 X0.4 Y200.0 Z0.3 F5000.0 ; Move to side a little
G1 X0.4 Y20 Z0.3 F1500.0 E30 ; Draw the second line
G92 E0 ; Reset Extruder
G1 Z2.0 F3000 ; Move Z Axis up little to prevent scratching of Heat Bed
G90 ;absolute xyz mode
; End of custom start GCode
G92 E0
G1 F2400 E-5
;LAYER_COUNT:67
;LAYER:0
G91; Put in relative mode
G1 F3000 E-13; retract
G90; Put in absolute mode
G1 F9000 X0 Y232.0; Back Home
G4 P500; WaitG90; Put back in absolute mode
M107
M204 S5000
M205 X30 Y30
;MESH:xyzCalibration_cube.stl
G0 F3600 X126.5 Y126.5 Z0.3
M204 S500
M205 X20 Y20
;TYPE:WALL-INNER
G1 F2400 E0
G1 F1500 X108.5 Y126.5 E0.89802
G1 X108.5 Y108.5 E1.79605
G1 X126.5 Y108.5 E2.69407
G1 X126.5 Y126.5 E3.59209
M204 S5000
M205 X30 Y30
G0 F3600 X126.9 Y126.9
M204 S500
M205 X20 Y20
G1 F1500 X108.1 Y126.9 E4.53003
G1 X108.1 Y108.1 E5.46797
G1 X126.9 Y108.1 E6.4059
G1 X126.9 Y126.9 E7.34384
M204 S5000
M205 X30 Y30
G0 F3600 X127.3 Y127.3
M204 S500
M205 X20 Y20
;TYPE:WALL-OUTER
G1 F1500 X107.7 Y127.3 E8.32169
G1 X107.7 Y107.7 E9.29953
G1 X127.3 Y107.7 E10.27738
G1 X127.3 Y127.3 E11.25523
M204 S5000
M205 X30 Y30
G0 F3600 X127.1 Y127.3
G0 X126.83 Y126.83
G0 X126.11 Y126.11
M204 S500
M205 X20 Y20
;TYPE:SKIN
G1 F1500 X108.89 Y126.11 E12.11434
G1 X108.89 Y108.89 E12.97345
G1 X126.11 Y108.89 E13.83256
G1 X126.11 Y126.11 E14.69167
M204 S5000
M205 X30 Y30
G0 F3600 X125.929 Y109.524
M204 S500
M205 X20 Y20
G1 F1500 X125.475 Y109.07 E14.7237
M204 S5000
M205 X30 Y30
G0 F3600 X124.909 Y109.07
M204 S500
M205 X20 Y20
G1 F1500 X125.929 Y110.09 E14.79567
M204 S5000
M205 X30 Y30
G0 F3600 X125.929 Y110.655
M204 S500
M205 X20 Y20
G1 F1500 X124.344 Y109.07 E14.9075
M204 S5000
M205 X30 Y30
G0 F3600 X123.778 Y109.07
M204 S500
M205 X20 Y20
G1 F1500 X125.929 Y111.221 E15.05926
M204 S5000
M205 X30 Y30
G0 F3600 X125.929 Y111.787
M204 S500
M205 X20 Y20
G1 F1500 X123.212 Y109.07 E15.25096
M204 S5000
M205 X30 Y30
G0 F3600 X122.646 Y109.07
M204 S500
M205 X20 Y20
G1 F1500 X125.929 Y112.352 E15.48256
M204 S5000
M205 X30 Y30
G0 F3600 X125.929 Y112.918
M204 S500
M205 X20 Y20
G1 F1500 X122.081 Y109.07 E15.75405
M204 S5000
M205 X30 Y30
G0 F3600 X121.515 Y109.07
M204 S500
M205 X20 Y20
G1 F1500 X125.929 Y113.484 E16.06549
M204 S5000
M205 X30 Y30
G0 F3600 X125.929 Y114.049
M204 S500
M205 X20 Y20
G1 F1500 X120.949 Y109.07 E16.41682
M204 S5000
M205 X30 Y30
G0 F3600 X120.384 Y109.07
M204 S500
M205 X20 Y20
G1 F1500 X125.929 Y114.615 E16.80805
M204 S5000
M205 X30 Y30
G0 F3600 X125.929 Y115.181
M204 S500
M205 X20 Y20
G1 F1500 X119.818 Y109.07 E17.23921
M204 S5000
M205 X30 Y30
G0 F3600 X119.252 Y109.07
M204 S500
M205 X20 Y20
G1 F1500 X125.929 Y115.747 E17.71031
M204 S5000
M205 X30 Y30
G0 F3600 X125.929 Y116.312
M204 S500
M205 X20 Y20
G1 F1500 X118.687 Y109.07 E18.22127
M204 S5000
M205 X30 Y30
G0 F3600 X118.121 Y109.07
M204 S500
M205 X20 Y20
G1 F1500 X125.929 Y116.878 E18.77217
M204 S5000
M205 X30 Y30
G0 F3600 X125.929 Y117.444
M204 S500
M205 X20 Y20
G1 F1500 X117.555 Y109.07 E19.363
M204 S5000
M205 X30 Y30
G0 F3600 X116.99 Y109.07
M204 S500
M205 X20 Y20
G1 F1500 X125.929 Y118.009 E19.99369
M204 S5000
M205 X30 Y30
G0 F3600 X125.929 Y118.575
M204 S500
M205 X20 Y20
G1 F1500 X116.424 Y109.07 E20.66432
M204 S5000
M205 X30 Y30
G0 F3600 X115.858 Y109.07
M204 S500
M205 X20 Y20
G1 F1500 X125.929 Y119.141 E21.37489
M204 S5000
M205 X30 Y30
G0 F3600 X125.929 Y119.706
M204 S500
M205 X20 Y20
G1 F1500 X115.293 Y109.07 E22.12531
M204 S5000
M205 X30 Y30
G0 F3600 X114.727 Y109.07
M204 S500
M205 X20 Y20
G1 F1500 X125.929 Y120.272 E22.91567
M204 S5000
M205 X30 Y30
G0 F3600 X125.929 Y120.838
M204 S500
M205 X20 Y20
G1 F1500 X114.161 Y109.07 E23.74597
M204 S5000
M205 X30 Y30
G0 F3600 X113.595 Y109.07
M204 S500
M205 X20 Y20
G1 F1500 X125.929 Y121.403 E24.61617
M204 S5000
M205 X30 Y30
G0 F3600 X125.929 Y121.969
M204 S500
M205 X20 Y20
G1 F1500 X113.03 Y109.07 E25.52626
M204 S5000
M205 X30 Y30
G0 F3600 X112.464 Y109.07
M204 S500
M205 X20 Y20
G1 F1500 X125.929 Y122.535 E26.47629
M204 S5000
M205 X30 Y30
G0 F3600 X125.929 Y123.1
M204 S500
M205 X20 Y20
G1 F1500 X111.898 Y109.07 E27.46622
M204 S5000
M205 X30 Y30
G0 F3600 X111.333 Y109.07
M204 S500
M205 X20 Y20
G1 F1500 X125.929 Y123.666 E28.49604
M204 S5000
M205 X30 Y30
G0 F3600 X125.929 Y124.232
M204 S500
M205 X20 Y20
G1 F1500 X110.767 Y109.07 E29.5658
M204 S5000
M205 X30 Y30
G0 F3600 X110.201 Y109.07
M204 S500
M205 X20 Y20
G1 F1500 X125.929 Y124.797 E30.67546
M204 S5000
M205 X30 Y30
G0 F3600 X125.929 Y125.363
M204 S500
M205 X20 Y20
G1 F1500 X109.636 Y109.07 E31.82502
M204 S5000
M205 X30 Y30
G0 F3600 X109.069 Y109.069
M204 S500
M205 X20 Y20
G1 F1500 X125.929 Y125.929 E33.01459
M204 S5000
M205 X30 Y30
G0 F3600 X125.363 Y125.929
M204 S500
M205 X20 Y20
G1 F1500 X109.069 Y109.635 E34.16422
M204 S5000
M205 X30 Y30
G0 F3600 X109.069 Y110.201
M204 S500
M205 X20 Y20
G1 F1500 X124.797 Y125.929 E35.27391
M204 S5000
M205 X30 Y30
G0 F3600 X124.232 Y125.929
M204 S500
M205 X20 Y20
G1 F1500 X109.069 Y110.766 E36.34374
M204 S5000
M205 X30 Y30
G0 F3600 X109.069 Y111.332
M204 S500
M205 X20 Y20
G1 F1500 X123.666 Y125.929 E37.37364
M204 S5000
M205 X30 Y30
G0 F3600 X123.1 Y125.929
M204 S500
M205 X20 Y20
G1 F1500 X109.069 Y111.898 E38.3636
M204 S5000
M205 X30 Y30
G0 F3600 X109.069 Y112.463
M204 S500
M205 X20 Y20
G1 F1500 X122.535 Y125.929 E39.3137
M204 S5000
M205 X30 Y30
G0 F3600 X121.969 Y125.929
M204 S500
M205 X20 Y20
G1 F1500 X109.069 Y113.029 E40.22387
M204 S5000
M205 X30 Y30
G0 F3600 X109.069 Y113.595
M204 S500
M205 X20 Y20
G1 F1500 X121.403 Y125.929 E41.0941
M204 S5000
M205 X30 Y30
G0 F3600 X120.838 Y125.929
M204 S500
M205 X20 Y20
G1 F1500 X109.069 Y114.16 E41.92446
M204 S5000
M205 X30 Y30
G0 F3600 X109.069 Y114.726
M204 S500
M205 X20 Y20
G1 F1500 X120.272 Y125.929 E42.7149
M204 S5000
M205 X30 Y30
G0 F3600 X119.706 Y125.929
M204 S500
M205 X20 Y20
G1 F1500 X109.069 Y115.292 E43.46539
M204 S5000
M205 X30 Y30
G0 F3600 X109.069 Y115.858
M204 S500
M205 X20 Y20
G1 F1500 X119.141 Y125.929 E44.17599
M204 S5000
M205 X30 Y30
G0 F3600 X118.575 Y125.929
M204 S500
M205 X20 Y20
G1 F1500 X109.069 Y116.423 E44.84669
M204 S5000
M205 X30 Y30
G0 F3600 X109.069 Y116.989
M204 S500
M205 X20 Y20
G1 F1500 X118.009 Y125.929 E45.47746
M204 S5000
M205 X30 Y30
G0 F3600 X117.444 Y125.929
M204 S500
M205 X20 Y20
G1 F1500 X109.069 Y117.555 E46.06832
M204 S5000
M205 X30 Y30
G0 F3600 X109.069 Y118.12
M204 S500
M205 X20 Y20
G1 F1500 X116.878 Y125.929 E46.61929
M204 S5000
M205 X30 Y30
G0 F3600 X116.312 Y125.929
M204 S500
M205 X20 Y20
G1 F1500 X109.069 Y118.686 E47.13032
M204 S5000
M205 X30 Y30
G0 F3600 X109.069 Y119.252
M204 S500
M205 X20 Y20
G1 F1500 X115.747 Y125.929 E47.60146
M204 S5000
M205 X30 Y30
G0 F3600 X115.181 Y125.929
M204 S500
M205 X20 Y20
G1 F1500 X109.069 Y119.817 E48.03269
M204 S5000
M205 X30 Y30
G0 F3600 X109.069 Y120.383
M204 S500
M205 X20 Y20
G1 F1500 X114.615 Y125.929 E48.42399
M204 S5000
M205 X30 Y30
G0 F3600 X114.049 Y125.929
M204 S500
M205 X20 Y20
G1 F1500 X109.069 Y120.949 E48.77536
M204 S5000
M205 X30 Y30
G0 F3600 X109.069 Y121.514
M204 S500
M205 X20 Y20
G1 F1500 X113.484 Y125.929 E49.08686
M204 S5000
M205 X30 Y30
G0 F3600 X112.918 Y125.929
M204 S500
M205 X20 Y20
G1 F1500 X109.069 Y122.08 E49.35843
M204 S5000
M205 X30 Y30
G0 F3600 X109.069 Y122.646
M204 S500
M205 X20 Y20
G1 F1500 X112.352 Y125.929 E49.59006
M204 S5000
M205 X30 Y30
G0 F3600 X111.787 Y125.929
M204 S500
M205 X20 Y20
G1 F1500 X109.069 Y123.211 E49.78183
M204 S5000
M205 X30 Y30
G0 F3600 X109.069 Y123.777
M204 S500
M205 X20 Y20
G1 F1500 X111.221 Y125.929 E49.93367
M204 S5000
M205 X30 Y30
G0 F3600 X110.655 Y125.929
M204 S500
M205 X20 Y20
G1 F1500 X109.069 Y124.343 E50.04557
M204 S5000
M205 X30 Y30
G0 F3600 X109.069 Y124.908
M204 S500
M205 X20 Y20
G1 F1500 X110.09 Y125.929 E50.1176
M204 S5000
M205 X30 Y30
G0 F3600 X109.524 Y125.929
M204 S500
M205 X20 Y20
G1 F1500 X109.069 Y125.474 E50.14971
M204 S5000
M205 X30 Y30
;MESH:NONMESH
G0 F3600 X126.5 Y126.5
;TIME_ELAPSED:51.181668
;LAYER:1
G91; Put in relative mode
G1 F3000 E-13; retract
G90; Put in absolute mode
G1 F9000 X0 Y232.0; Back Home
G4 P500; WaitG90; Put back in absolute mode
M140 S40
M106 S255
;MESH:xyzCalibration_cube.stl
G0 F5400 X126.5 Y126.5 Z0.6
M204 S500
M205 X20 Y20
;TYPE:WALL-INNER
G1 F2250 X108.5 Y126.5 E51.04773
G1 X108.5 Y108.5 E51.94575
G1 X126.5 Y108.5 E52.84378
G1 X126.5 Y126.5 E53.7418
M204 S5000
M205 X30 Y30
G0 F5400 X126.9 Y126.9
M204 S500
M205 X20 Y20
G1 F2250 X108.1 Y126.9 E54.67974
G1 X108.1 Y108.1 E55.61767
G1 X126.9 Y108.1 E56.55561
G1 X126.9 Y126.9 E57.49354
M204 S5000
M205 X30 Y30
G0 F5400 X127.3 Y127.3
M204 S500
M205 X20 Y20
;TYPE:WALL-OUTER
G1 F1500 X107.7 Y127.3 E58.47139
G1 X107.7 Y107.7 E59.44924
G1 X127.3 Y107.7 E60.42709
G1 X127.3 Y127.3 E61.40494
M204 S5000
M205 X30 Y30
G0 F5400 X127.1 Y127.3
G0 X126.83 Y126.83
G0 X126.11 Y126.11
M204 S500
M205 X20 Y20
;TYPE:SKIN
G1 F1500 X108.89 Y126.11 E62.26405
G1 X108.89 Y108.89 E63.12316
G1 X126.11 Y108.89 E63.98226
G1 X126.11 Y126.11 E64.84137
M204 S5000
M205 X30 Y30
G0 F5400 X125.8 Y125.929
M204 S500
M205 X20 Y20
G1 F1500 X125.929 Y125.8 E64.85048
M204 S5000
M205 X30 Y30
G0 F5400 X125.929 Y125.234
M204 S500
M205 X20 Y20
G1 F1500 X125.234 Y125.929 E64.89951
M204 S5000
M205 X30 Y30
G0 F5400 X124.669 Y125.929
M204 S500
M205 X20 Y20
G1 F1500 X125.929 Y124.669 E64.98841
M204 S5000
M205 X30 Y30
G0 F5400 X125.929 Y124.103
M204 S500
M205 X20 Y20
G1 F1500 X124.103 Y125.929 E65.11725
M204 S5000
M205 X30 Y30
G0 F5400 X123.537 Y125.929
M204 S500
M205 X20 Y20
G1 F1500 X125.929 Y123.537 E65.28601
M204 S5000
M205 X30 Y30
G0 F5400 X125.929 Y122.972
M204 S500
M205 X20 Y20
G1 F1500 X122.972 Y125.929 E65.49465
M204 S5000
M205 X30 Y30
G0 F5400 X122.406 Y125.929
M204 S500
M205 X20 Y20
G1 F1500 X125.929 Y122.406 E65.74321
M204 S5000
M205 X30 Y30
G0 F5400 X125.929 Y121.84
M204 S500
M205 X20 Y20
G1 F1500 X121.84 Y125.929 E66.03171
M204 S5000
M205 X30 Y30
G0 F5400 X121.275 Y125.929
M204 S500
M205 X20 Y20
G1 F1500 X125.929 Y121.275 E66.36008
M204 S5000
M205 X30 Y30
G0 F5400 X125.929 Y120.709
M204 S500
M205 X20 Y20
G1 F1500 X120.709 Y125.929 E66.72838
M204 S5000
M205 X30 Y30
G0 F5400 X120.143 Y125.929
M204 S500
M205 X20 Y20
G1 F1500 X125.929 Y120.143 E67.13661
M204 S5000
M205 X30 Y30
G0 F5400 X125.929 Y119.578
M204 S500
M205 X20 Y20
G1 F1500 X119.578 Y125.929 E67.58471
M204 S5000
M205 X30 Y30
G0 F5400 X119.012 Y125.929
M204 S500
M205 X20 Y20
G1 F1500 X125.929 Y119.012 E68.07274
M204 S5000
M205 X30 Y30
G0 F5400 X125.929 Y118.446
M204 S500
M205 X20 Y20
G1 F1500 X118.446 Y125.929 E68.60071
M204 S5000
M205 X30 Y30
G0 F5400 X117.881 Y125.929
M204 S500
M205 X20 Y20
G1 F1500 X125.929 Y117.881 E69.16854
M204 S5000
M205 X30 Y30
G0 F5400 X125.929 Y117.315
M204 S500
M205 X20 Y20
G1 F1500 X117.315 Y125.929 E69.7763
M204 S5000
M205 X30 Y30
G0 F5400 X116.749 Y125.929
M204 S500
M205 X20 Y20
G1 F1500 X125.929 Y116.749 E70.424
M204 S5000
M205 X30 Y30
G0 F5400 X125.929 Y116.184
M204 S500
M205 X20 Y20
G1 F1500 X116.184 Y125.929 E71.11156
M204 S5000
M205 X30 Y30
G0 F5400 X115.618 Y125.929
M204 S500
M205 X20 Y20
G1 F1500 X125.929 Y115.618 E71.83906
M204 S5000
M205 X30 Y30
G0 F5400 X125.929 Y115.052
M204 S500
M205 X20 Y20
G1 F1500 X115.052 Y125.929 E72.60649
M204 S5000
M205 X30 Y30
G0 F5400 X114.486 Y125.929
M204 S500
M205 X20 Y20
G1 F1500 X125.929 Y114.486 E73.41386
M204 S5000
M205 X30 Y30
G0 F5400 X125.929 Y113.921
M204 S500
M205 X20 Y20
G1 F1500 X113.921 Y125.929 E74.26108
M204 S5000
M205 X30 Y30
G0 F5400 X113.355 Y125.929
M204 S500
M205 X20 Y20
G1 F1500 X125.929 Y113.355 E75.14825
M204 S5000
M205 X30 Y30
G0 F5400 X125.929 Y112.789
M204 S500
M205 X20 Y20
G1 F1500 X112.789 Y125.929 E76.07535
M204 S5000
M205 X30 Y30
G0 F5400 X112.224 Y125.929
M204 S500
M205 X20 Y20
G1 F1500 X125.929 Y112.224 E77.04231
M204 S5000
M205 X30 Y30
G0 F5400 X125.929 Y111.658
M204 S500
M205 X20 Y20
G1 F1500 X111.658 Y125.929 E78.0492
M204 S5000
M205 X30 Y30
G0 F5400 X111.092 Y125.929
M204 S500
M205 X20 Y20
G1 F1500 X125.929 Y111.092 E79.09603
M204 S5000
M205 X30 Y30
G0 F5400 X125.929 Y110.527
M204 S500
M205 X20 Y20
G1 F1500 X110.527 Y125.929 E80.18273
M204 S5000
M205 X30 Y30
G0 F5400 X109.961 Y125.929
M204 S500
M205 X20 Y20
G1 F1500 X125.929 Y109.961 E81.30936
M204 S5000
M205 X30 Y30
G0 F5400 X125.929 Y109.395
M204 S500
M205 X20 Y20
G1 F1500 X109.395 Y125.929 E82.47592
M204 S5000
M205 X30 Y30
G0 F5400 X109.07 Y125.688
M204 S500
M205 X20 Y20
G1 F1500 X125.689 Y109.069 E83.64848
M204 S5000
M205 X30 Y30
G0 F5400 X125.123 Y109.069
M204 S500
M205 X20 Y20
G1 F1500 X109.07 Y125.123 E84.78114
M204 S5000
M205 X30 Y30
G0 F5400 X109.07 Y124.557
M204 S500
M205 X20 Y20
G1 F1500 X124.558 Y109.069 E85.8739
M204 S5000
M205 X30 Y30
G0 F5400 X123.992 Y109.069
M204 S500
M205 X20 Y20
G1 F1500 X109.07 Y123.991 E86.92673
M204 S5000
M205 X30 Y30
G0 F5400 X109.07 Y123.426
M204 S500
M205 X20 Y20
G1 F1500 X123.426 Y109.069 E87.93966
M204 S5000
M205 X30 Y30
G0 F5400 X122.861 Y109.069
M204 S500
M205 X20 Y20
G1 F1500 X109.07 Y122.86 E88.91269
M204 S5000
M205 X30 Y30
G0 F5400 X109.07 Y122.294
M204 S500
M205 X20 Y20
G1 F1500 X122.295 Y109.069 E89.84578
M204 S5000
M205 X30 Y30
G0 F5400 X121.729 Y109.069
M204 S500
M205 X20 Y20
G1 F1500 X109.07 Y121.729 E90.73898
M204 S5000
M205 X30 Y30
G0 F5400 X109.07 Y121.163
M204 S500
M205 X20 Y20
G1 F1500 X121.164 Y109.069 E91.59228
M204 S5000
M205 X30 Y30
G0 F5400 X120.598 Y109.069
M204 S500
M205 X20 Y20
G1 F1500 X109.07 Y120.597 E92.40564
M204 S5000
M205 X30 Y30
G0 F5400 X109.07 Y120.032
M204 S500
M205 X20 Y20
G1 F1500 X120.032 Y109.069 E93.1791
M204 S5000
M205 X30 Y30
G0 F5400 X119.467 Y109.069
M204 S500
M205 X20 Y20
G1 F1500 X109.07 Y119.466 E93.91267
M204 S5000
M205 X30 Y30
G0 F5400 X109.07 Y118.9
M204 S500
M205 X20 Y20
G1 F1500 X118.901 Y109.069 E94.6063
M204 S5000
M205 X30 Y30
G0 F5400 X118.335 Y109.069
M204 S500
M205 X20 Y20
G1 F1500 X109.07 Y118.335 E95.26003
M204 S5000
M205 X30 Y30
G0 F5400 X109.07 Y117.769
M204 S500
M205 X20 Y20
G1 F1500 X117.77 Y109.069 E95.87386
M204 S5000
M205 X30 Y30
G0 F5400 X117.204 Y109.069
M204 S500
M205 X20 Y20
G1 F1500 X109.07 Y117.203 E96.44776
M204 S5000
M205 X30 Y30
G0 F5400 X109.07 Y116.637
M204 S500
M205 X20 Y20
G1 F1500 X116.638 Y109.069 E96.98172
M204 S5000
M205 X30 Y30
G0 F5400 X116.072 Y109.069
M204 S500
M205 X20 Y20
G1 F1500 X109.07 Y116.072 E97.47579
M204 S5000
M205 X30 Y30
G0 F5400 X109.07 Y115.506
M204 S500
M205 X20 Y20
G1 F1500 X115.507 Y109.069 E97.92995
M204 S5000
M205 X30 Y30
G0 F5400 X114.941 Y109.069
M204 S500
M205 X20 Y20
G1 F1500 X109.07 Y114.94 E98.34418
M204 S5000
M205 X30 Y30
G0 F5400 X109.07 Y114.375
M204 S500
M205 X20 Y20
G1 F1500 X114.375 Y109.069 E98.71851
M204 S5000
M205 X30 Y30
G0 F5400 X113.81 Y109.069
M204 S500
M205 X20 Y20
G1 F1500 X109.07 Y113.809 E99.05295
M204 S5000
M205 X30 Y30
G0 F5400 X109.07 Y113.243
M204 S500
M205 X20 Y20
G1 F1500 X113.244 Y109.069 E99.34745
M204 S5000
M205 X30 Y30
G0 F5400 X112.678 Y109.069
M204 S500
M205 X20 Y20
G1 F1500 X109.07 Y112.678 E99.60204
M204 S5000
M205 X30 Y30
G0 F5400 X109.07 Y112.112
M204 S500
M205 X20 Y20
G1 F1500 X112.113 Y109.069 E99.81674
M204 S5000
M205 X30 Y30
G0 F5400 X111.547 Y109.069
M204 S500
M205 X20 Y20
G1 F1500 X109.07 Y111.546 E99.99151
M204 S5000
M205 X30 Y30
G0 F5400 X109.07 Y110.981
M204 S500
M205 X20 Y20
G1 F1500 X110.981 Y109.069 E100.12638
M204 S5000
M205 X30 Y30
G0 F5400 X110.416 Y109.069
M204 S500
M205 X20 Y20
G1 F1500 X109.07 Y110.415 E100.22134
M204 S5000
M205 X30 Y30
G0 F5400 X109.07 Y109.849
M204 S500
M205 X20 Y20
G1 F1500 X109.85 Y109.069 E100.27638
M204 S5000
M205 X30 Y30
G0 F5400 X109.284 Y109.069
M204 S500
M205 X20 Y20
G1 F1500 X109.07 Y109.284 E100.29151
M204 S5000
M205 X30 Y30
;MESH:NONMESH
