;FLAVOR:Marlin
;TIME:3010
;Filament used: 2.4647m
;Layer height: 0.3
;Generated with Cura_SteamEngine 3.6.0
M140 S40
M105
M190 S40
M104 S205
M105
M109 S205
M82 ;absolute extrusion mode
; Ender 3 Custom Start G-code
G28 ; Home all axes
G92 E0 ; Reset Extruder
G1 Z2.0 F3000 ; Move Z Axis up little to prevent scratching of Heat Bed
G1 X0.1 Y20 Z0.3 F5000.0 ; Move to start position
G1 X0.1 Y200.0 Z0.3 F1500.0 E15 ; Draw the first line
G1 X0.4 Y200.0 Z0.3 F5000.0 ; Move to side a little
G1 X0.4 Y20 Z0.3 F1500.0 E30 ; Draw the second line
G92 E0 ; Reset Extruder
G1 Z2.0 F3000 ; Move Z Axis up little to prevent scratching of Heat Bed
G90 ;absolute xyz mode
; End of custom start GCode
G92 E0
G1 F3000 E-10
;LAYER_COUNT:328
;LAYER:0
G91; Put in relative mode
G1 F3000 E-13; retract
G90; Put in absolute mode
G1 F9000 X0 Y232.0; Back Home
G4 P500; WaitG90; Put back in absolute mode
M107
M204 S5000
M205 X30 Y30
;MESH:PolyPearl_Tower.STL
G0 F3600 X109.412 Y140.127 Z0.3
M204 S500
M205 X20 Y20
;TYPE:WALL-INNER
G1 F3000 E0
G1 F1500 X107.475 Y139.338 E0.10435
G1 X106.132 Y138.691 E0.17872
G1 X104.825 Y137.961 E0.25341
G1 X103.567 Y137.155 E0.32795
G1 X102.351 Y136.269 E0.40301
G1 X101.201 Y135.318 E0.47746
G1 X100.118 Y134.307 E0.55137
G1 X99.082 Y133.215 E0.62647
G1 X98.127 Y132.078 E0.70055
G1 X97.234 Y130.874 E0.77534
G1 X96.424 Y129.631 E0.84935
G1 X95.674 Y128.311 E0.9251
G1 X95.026 Y126.993 E0.99837
G1 X94.449 Y125.611 E1.07309
G1 X93.954 Y124.19 E1.14816
G1 X93.551 Y122.759 E1.22233
G1 X93.232 Y121.295 E1.29708
G1 X93.003 Y119.819 E1.3716
G1 X92.865 Y118.351 E1.44516
G1 X92.815 Y116.85 E1.52009
G1 X92.857 Y115.334 E1.59575
G1 X92.986 Y113.883 E1.66843
G1 X93.21 Y112.381 E1.74419
G1 X93.518 Y110.933 E1.81805
G1 X93.923 Y109.47 E1.89378
G1 X94.395 Y108.09 E1.96655
G1 X94.968 Y106.695 E2.04179
G1 X95.618 Y105.353 E2.11618
G1 X96.352 Y104.046 E2.19097
G1 X97.166 Y102.783 E2.26593
G1 X98.034 Y101.601 E2.33909
G1 X99.005 Y100.432 E2.41491
G1 X100.027 Y99.343 E2.48942
G1 X101.118 Y98.314 E2.56424
G1 X102.249 Y97.369 E2.63777
G1 X103.442 Y96.49 E2.7117
G1 X104.726 Y95.658 E2.78803
G1 X106.013 Y94.931 E2.86177
G1 X107.351 Y94.278 E2.93605
G1 X108.727 Y93.707 E3.01038
G1 X110.146 Y93.216 E3.08529
G1 X111.577 Y92.817 E3.15941
G1 X113.053 Y92.499 E3.23473
G1 X114.524 Y92.275 E3.30897
G1 X115.993 Y92.141 E3.38256
G1 X117.5 Y92.095 E3.45778
G1 X119.007 Y92.141 E3.533
G1 X120.476 Y92.275 E3.60659
G1 X121.947 Y92.499 E3.68083
G1 X123.423 Y92.817 E3.75616
G1 X124.854 Y93.216 E3.83027
G1 X126.273 Y93.707 E3.90518
G1 X127.649 Y94.278 E3.97951
G1 X128.987 Y94.931 E4.05379
G1 X130.274 Y95.658 E4.12753
G1 X131.558 Y96.49 E4.20386
G1 X132.752 Y97.37 E4.27786
G1 X133.883 Y98.314 E4.35136
G1 X134.973 Y99.343 E4.42615
G1 X135.995 Y100.432 E4.50066
G1 X136.966 Y101.601 E4.57647
G1 X137.834 Y102.783 E4.64964
G1 X138.642 Y104.036 E4.72402
G1 X139.382 Y105.353 E4.79938
G1 X140.027 Y106.684 E4.87317
G1 X140.605 Y108.09 E4.94902
G1 X141.077 Y109.47 E5.02178
G1 X141.482 Y110.933 E5.09752
G1 X141.79 Y112.381 E5.17137
G1 X142.014 Y113.883 E5.24714
G1 X142.143 Y115.334 E5.31981
G1 X142.185 Y116.838 E5.39488
G1 X142.135 Y118.351 E5.4704
G1 X141.997 Y119.819 E5.54396
G1 X141.768 Y121.295 E5.61848
G1 X141.449 Y122.759 E5.69324
G1 X141.046 Y124.19 E5.76741
G1 X140.551 Y125.611 E5.84248
G1 X139.974 Y126.993 E5.91719
G1 X139.326 Y128.311 E5.99047
G1 X138.576 Y129.631 E6.06621
G1 X137.766 Y130.874 E6.14023
G1 X136.873 Y132.078 E6.21501
G1 X135.918 Y133.215 E6.28909
G1 X134.89 Y134.299 E6.36363
G1 X133.79 Y135.326 E6.43871
G1 X132.649 Y136.269 E6.51256
G1 X131.433 Y137.155 E6.58762
G1 X130.175 Y137.961 E6.66216
G1 X128.868 Y138.691 E6.73685
G1 X127.525 Y139.338 E6.81122
G1 X125.589 Y140.129 E6.91556
G1 X126.014 Y141.263 E6.97597
G1 X126.015 Y141.264 E6.97604
G1 X126.085 Y141.455 E6.98619
G1 X125.892 Y141.521 E6.99272
G1 X125.294 Y141.727 E7.02428
G1 X123.903 Y142.12 E7.09639
G1 X122.512 Y142.43 E7.16749
G1 X121.09 Y142.667 E7.23941
G1 X119.646 Y142.827 E7.3119
G1 X118.221 Y142.906 E7.3831
G1 X116.779 Y142.906 E7.45504
G1 X115.354 Y142.827 E7.52624
G1 X113.91 Y142.667 E7.59873
G1 X112.488 Y142.43 E7.67065
G1 X111.097 Y142.12 E7.74175
G1 X109.706 Y141.727 E7.81386
G1 X109.108 Y141.521 E7.84542
G1 X108.915 Y141.455 E7.85559
G1 X108.985 Y141.264 E7.8621
G1 X108.986 Y141.263 E7.86218
G1 X109.412 Y140.127 E7.9227
M204 S5000
M205 X30 Y30
G0 F3600 X108.901 Y140.351
M204 S500
M205 X20 Y20
;TYPE:WALL-OUTER
G1 F1500 X107.309 Y139.702 E8.00848
G1 X105.948 Y139.046 E8.08385
G1 X104.612 Y138.3 E8.16019
G1 X103.344 Y137.488 E8.23531
G1 X102.108 Y136.587 E8.31162
G1 X100.938 Y135.62 E8.38735
G1 X99.837 Y134.592 E8.4625
G1 X98.784 Y133.482 E8.53883
G1 X97.813 Y132.326 E8.61415
G1 X96.905 Y131.101 E8.69023
G1 X96.076 Y129.829 E8.76597
G1 X95.326 Y128.509 E8.84172
G1 X94.662 Y127.158 E8.91682
G1 X94.072 Y125.746 E8.99317
G1 X93.576 Y124.322 E9.0684
G1 X93.162 Y122.852 E9.14459
G1 X92.841 Y121.38 E9.21975
G1 X92.606 Y119.868 E9.29609
G1 X92.465 Y118.368 E9.37126
G1 X92.415 Y116.852 E9.44693
G1 X92.457 Y115.323 E9.52324
G1 X92.59 Y113.824 E9.59832
G1 X92.814 Y112.322 E9.67409
G1 X93.132 Y110.826 E9.75039
G1 X93.537 Y109.363 E9.82612
G1 X94.025 Y107.938 E9.90127
G1 X94.602 Y106.534 E9.977
G1 X95.269 Y105.157 E10.05333
G1 X96.007 Y103.844 E10.12848
G1 X96.835 Y102.558 E10.20479
G1 X97.726 Y101.345 E10.27987
G1 X98.704 Y100.168 E10.35622
G1 X99.743 Y99.061 E10.43197
G1 X100.843 Y98.023 E10.50742
G1 X102.003 Y97.054 E10.58283
G1 X103.224 Y96.154 E10.6585
G1 X104.508 Y95.322 E10.73484
G1 X105.819 Y94.581 E10.80997
G1 X107.188 Y93.913 E10.88596
G1 X108.596 Y93.329 E10.96201
G1 X110.02 Y92.836 E11.03719
G1 X111.486 Y92.427 E11.11312
G1 X112.974 Y92.107 E11.18906
G1 X114.477 Y91.878 E11.26491
G1 X115.978 Y91.741 E11.34011
G1 X117.5 Y91.695 E11.41607
G1 X119.022 Y91.741 E11.49204
G1 X120.523 Y91.878 E11.56724
G1 X122.026 Y92.107 E11.64309
G1 X123.514 Y92.427 E11.71902
G1 X124.98 Y92.836 E11.79495
G1 X126.404 Y93.329 E11.87013
G1 X127.812 Y93.913 E11.94618
G1 X129.181 Y94.581 E12.02218
G1 X130.492 Y95.322 E12.09731
G1 X131.776 Y96.154 E12.17364
G1 X132.998 Y97.054 E12.24936
G1 X134.158 Y98.023 E12.32477
G1 X135.257 Y99.061 E12.40018
G1 X136.296 Y100.168 E12.47593
G1 X137.274 Y101.345 E12.55228
G1 X138.165 Y102.558 E12.62736
G1 X138.987 Y103.834 E12.70309
G1 X139.731 Y105.157 E12.77882
G1 X140.393 Y106.523 E12.85455
G1 X140.975 Y107.938 E12.93088
G1 X141.463 Y109.363 E13.00603
G1 X141.868 Y110.826 E13.08176
G1 X142.186 Y112.322 E13.15806
G1 X142.41 Y113.824 E13.23383
G1 X142.543 Y115.323 E13.30891
G1 X142.585 Y116.84 E13.38462
G1 X142.535 Y118.368 E13.46089
G1 X142.394 Y119.868 E13.53606
G1 X142.159 Y121.38 E13.6124
G1 X141.838 Y122.852 E13.68756
G1 X141.424 Y124.322 E13.76375
G1 X140.928 Y125.746 E13.83898
G1 X140.338 Y127.158 E13.91533
G1 X139.674 Y128.509 E13.99043
G1 X138.924 Y129.829 E14.06618
G1 X138.095 Y131.101 E14.14192
G1 X137.187 Y132.326 E14.218
G1 X136.216 Y133.482 E14.29332
G1 X135.171 Y134.584 E14.36908
G1 X134.053 Y135.628 E14.4454
G1 X132.892 Y136.587 E14.52053
G1 X131.656 Y137.488 E14.59684
G1 X130.388 Y138.3 E14.67196
G1 X129.052 Y139.046 E14.7483
G1 X127.691 Y139.702 E14.82367
G1 X126.1 Y140.352 E14.90942
G1 X126.533 Y141.508 E14.971
G1 X126.534 Y141.509 E14.97107
G1 X126.604 Y141.7 E14.98122
G1 X126.411 Y141.766 E14.98775
G1 X125.406 Y142.111 E15.04076
G1 X124.011 Y142.505 E15.11308
G1 X122.578 Y142.825 E15.18634
G1 X121.146 Y143.064 E15.25877
G1 X119.69 Y143.225 E15.33185
G1 X118.225 Y143.306 E15.40505
G1 X116.775 Y143.306 E15.47739
G1 X115.31 Y143.225 E15.55059
G1 X113.854 Y143.064 E15.62368
G1 X112.422 Y142.825 E15.69611
G1 X110.989 Y142.505 E15.76936
G1 X109.594 Y142.111 E15.84168
G1 X108.589 Y141.766 E15.89469
G1 X108.396 Y141.7 E15.90487
G1 X108.466 Y141.509 E15.91138
G1 X108.467 Y141.508 E15.91145
G1 X108.901 Y140.351 E15.9731
M204 S5000
M205 X30 Y30
G0 F3600 X108.716 Y140.276
G0 X108.905 Y139.814
G0 X109.448 Y140.111
G0 X109.421 Y141.216
M204 S500
M205 X20 Y20
;TYPE:SKIN
G1 F1500 X109.91 Y139.909 E16.04272
G1 X107.632 Y138.981 E16.16544
G1 X106.323 Y138.35 E16.23794
G1 X105.016 Y137.62 E16.31263
G1 X103.797 Y136.839 E16.38485
G1 X102.581 Y135.953 E16.45992
G1 X101.458 Y135.025 E16.5326
G1 X100.393 Y134.03 E16.60531
G1 X99.365 Y132.946 E16.67984
G1 X98.431 Y131.833 E16.75233
G1 X97.548 Y130.642 E16.8263
G1 X96.751 Y129.418 E16.89917
G1 X96.019 Y128.128 E16.97317
G1 X95.382 Y126.832 E17.04521
G1 X94.809 Y125.461 E17.11935
G1 X94.329 Y124.082 E17.19219
G1 X93.93 Y122.663 E17.26573
G1 X93.616 Y121.224 E17.33922
G1 X93.389 Y119.759 E17.41318
G1 X93.255 Y118.334 E17.48458
G1 X93.205 Y116.861 E17.55811
G1 X93.247 Y115.345 E17.63378
G1 X93.372 Y113.941 E17.7041
G1 X93.592 Y112.463 E17.77865
G1 X93.9 Y111.015 E17.85251
G1 X94.296 Y109.584 E17.92658
G1 X94.756 Y108.238 E17.99755
G1 X95.319 Y106.865 E18.07158
G1 X95.964 Y105.533 E18.14542
G1 X96.68 Y104.257 E18.21842
G1 X97.494 Y102.994 E18.29338
G1 X98.341 Y101.842 E18.36472
G1 X99.298 Y100.69 E18.43943
G1 X100.312 Y99.61 E18.51334
G1 X101.373 Y98.609 E18.58612
G1 X102.49 Y97.676 E18.65873
G1 X103.664 Y96.811 E18.73148
G1 X104.934 Y95.988 E18.80698
G1 X106.184 Y95.282 E18.8786
G1 X107.516 Y94.632 E18.95255
G1 X108.866 Y94.072 E19.02546
G1 X110.262 Y93.589 E19.09916
G1 X111.664 Y93.198 E19.17178
G1 X113.127 Y92.883 E19.24644
G1 X114.583 Y92.661 E19.31992
G1 X116.007 Y92.531 E19.39126
G1 X117.5 Y92.485 E19.46578
G1 X118.993 Y92.531 E19.5403
G1 X120.417 Y92.661 E19.61164
G1 X121.873 Y92.883 E19.68512
G1 X123.336 Y93.198 E19.75978
G1 X124.738 Y93.589 E19.83239
G1 X126.134 Y94.072 E19.90609
G1 X127.484 Y94.632 E19.97901
G1 X128.816 Y95.282 E20.05295
G1 X130.066 Y95.988 E20.12458
G1 X131.332 Y96.808 E20.19983
G1 X132.502 Y97.67 E20.27233
G1 X133.633 Y98.614 E20.34583
G1 X134.688 Y99.61 E20.41821
G1 X135.702 Y100.69 E20.49212
G1 X136.659 Y101.842 E20.56684
G1 X137.506 Y102.994 E20.63818
G1 X138.302 Y104.227 E20.7114
G1 X139.036 Y105.533 E20.78614
G1 X139.666 Y106.832 E20.85816
G1 X140.244 Y108.238 E20.93401
G1 X140.701 Y109.574 E21.00445
G1 X141.1 Y111.015 E21.07905
G1 X141.408 Y112.463 E21.1529
G1 X141.628 Y113.941 E21.22746
G1 X141.753 Y115.345 E21.29778
G1 X141.795 Y116.825 E21.37165
G1 X141.745 Y118.334 E21.44697
G1 X141.611 Y119.759 E21.51838
G1 X141.384 Y121.224 E21.59234
G1 X141.07 Y122.663 E21.66582
G1 X140.671 Y124.082 E21.73936
G1 X140.191 Y125.461 E21.81221
G1 X139.618 Y126.832 E21.88634
G1 X138.981 Y128.128 E21.95839
G1 X138.249 Y129.418 E22.03238
G1 X137.452 Y130.642 E22.10525
G1 X136.569 Y131.833 E22.17922
G1 X135.635 Y132.946 E22.25171
G1 X134.615 Y134.022 E22.32568
G1 X133.533 Y135.033 E22.39956
G1 X132.419 Y135.953 E22.47164
G1 X131.203 Y136.839 E22.5467
G1 X129.984 Y137.62 E22.61893
G1 X128.679 Y138.349 E22.69351
G1 X127.369 Y138.981 E22.76607
G1 X125.091 Y139.911 E22.88883
G1 X125.579 Y141.216 E22.95834
G1 X125.17 Y141.357 E22.97992
G1 X123.807 Y141.742 E23.05058
G1 X122.436 Y142.048 E23.12066
G1 X121.047 Y142.279 E23.19091
G1 X119.618 Y142.437 E23.26264
G1 X118.199 Y142.516 E23.33354
G1 X116.801 Y142.516 E23.40329
G1 X115.382 Y142.437 E23.47419
G1 X113.953 Y142.279 E23.54592
G1 X112.564 Y142.048 E23.61617
G1 X111.193 Y141.742 E23.68625
G1 X109.83 Y141.357 E23.75691
G1 X109.421 Y141.216 E23.7785
M204 S5000
M205 X30 Y30
G0 F3600 X117.56 Y116.49
M204 S500
M205 X20 Y20
G1 F1500 X117.601 Y116.498 E23.78058
G1 X117.703 Y116.565 E23.78667
G1 X117.721 Y116.583 E23.78794
G1 X117.781 Y116.675 E23.79342
G1 X117.792 Y116.742 E23.79681
G1 X117.786 Y116.872 E23.8033
G1 X117.782 Y116.887 E23.80407
G1 X117.779 Y116.894 E23.80445
G1 X117.732 Y116.967 E23.80879
G1 X117.688 Y117.003 E23.81162
G1 X117.546 Y117.097 E23.82012
G1 X117.516 Y117.111 E23.82177
G1 X117.364 Y117.049 E23.82996
G1 X117.33 Y117.024 E23.83207
G1 X117.278 Y116.976 E23.8356
G1 X117.222 Y116.89 E23.84072
G1 X117.211 Y116.849 E23.84283
G1 X117.207 Y116.756 E23.84748
G1 X117.223 Y116.658 E23.85243
G1 X117.249 Y116.617 E23.85485
G1 X117.285 Y116.581 E23.85739
G1 X117.418 Y116.494 E23.86532
G1 X117.432 Y116.489 E23.86606
G1 X117.495 Y116.487 E23.86921
G1 X117.56 Y116.49 E23.87246
M204 S5000
M205 X30 Y30
G0 F3600 X117.607 Y116.091
M204 S500
M205 X20 Y20
G1 F1500 X117.705 Y116.111 E23.87745
G1 X117.739 Y116.121 E23.87921
G1 X117.783 Y116.139 E23.88159
G1 X117.959 Y116.254 E23.89207
G1 X118.034 Y116.333 E23.89751
G1 X118.158 Y116.522 E23.90879
G1 X118.164 Y116.539 E23.90969
G1 X118.193 Y116.72 E23.91883
G1 X118.185 Y116.925 E23.92907
G1 X118.182 Y116.943 E23.92998
G1 X118.158 Y117.03 E23.93448
G1 X118.128 Y117.091 E23.93787
G1 X118.04 Y117.228 E23.94599
G1 X118.002 Y117.263 E23.94857
G1 X117.928 Y117.325 E23.95339
G1 X117.744 Y117.445 E23.96435
G1 X117.536 Y117.544 E23.97584
G1 X117.526 Y117.547 E23.97636
G1 X117.177 Y117.405 E23.99516
G1 X117.154 Y117.39 E23.99653
G1 X117.075 Y117.333 E24.00139
G1 X116.97 Y117.236 E24.00852
G1 X116.869 Y117.079 E24.01783
G1 X116.846 Y117.031 E24.02049
G1 X116.844 Y117.024 E24.02085
G1 X116.813 Y116.911 E24.0267
G1 X116.806 Y116.736 E24.03544
G1 X116.837 Y116.536 E24.04553
G1 X116.841 Y116.525 E24.04612
G1 X116.858 Y116.484 E24.04833
G1 X116.937 Y116.363 E24.05554
G1 X116.977 Y116.323 E24.05836
G1 X116.98 Y116.313 E24.05888
G1 X117.001 Y116.291 E24.0604
G1 X117.01 Y116.283 E24.061
G1 X117.242 Y116.132 E24.07481
G1 X117.35 Y116.095 E24.08051
G1 X117.37 Y116.091 E24.08153
G1 X117.496 Y116.087 E24.08782
G1 X117.607 Y116.091 E24.09336
M204 S5000
M205 X30 Y30
G0 F3600 X117.657 Y115.692
M204 S500
M205 X20 Y20
G1 F1500 X117.796 Y115.721 E24.10044
G1 X117.875 Y115.744 E24.10455
G1 X117.967 Y115.782 E24.10951
G1 X118.194 Y115.93 E24.12303
G1 X118.215 Y115.945 E24.12432
G1 X118.229 Y115.957 E24.12524
G1 X118.349 Y116.083 E24.13392
G1 X118.518 Y116.342 E24.14935
G1 X118.531 Y116.375 E24.15112
G1 X118.554 Y116.443 E24.1547
G1 X118.595 Y116.697 E24.16754
G1 X118.584 Y116.973 E24.18132
G1 X118.574 Y117.024 E24.18391
G1 X118.533 Y117.172 E24.19157
G1 X118.48 Y117.283 E24.19771
G1 X118.354 Y117.479 E24.20933
G1 X118.345 Y117.491 E24.21008
G1 X118.263 Y117.567 E24.21566
G1 X118.167 Y117.646 E24.22186
G1 X117.938 Y117.795 E24.23549
G1 X117.692 Y117.912 E24.24908
G1 X117.526 Y117.979 E24.25801
G1 X116.989 Y117.761 E24.28693
G1 X116.919 Y117.714 E24.29113
G1 X116.824 Y117.645 E24.29699
G1 X116.663 Y117.497 E24.3079
G1 X116.519 Y117.273 E24.32119
G1 X116.474 Y117.181 E24.3263
G1 X116.46 Y117.137 E24.3286
G1 X116.415 Y116.971 E24.33718
G1 X116.405 Y116.717 E24.34986
G1 X116.448 Y116.436 E24.36405
G1 X116.464 Y116.391 E24.36643
G1 X116.503 Y116.296 E24.37155
G1 X116.625 Y116.109 E24.38269
G1 X116.627 Y116.107 E24.38283
G1 X116.628 Y116.104 E24.38299
G1 X116.727 Y115.999 E24.39019
G1 X116.759 Y115.969 E24.39238
G1 X117.059 Y115.774 E24.41023
G1 X117.095 Y115.759 E24.41218
G1 X117.239 Y115.71 E24.41976
G1 X117.324 Y115.692 E24.4241
G1 X117.497 Y115.686 E24.43273
G1 X117.657 Y115.692 E24.44072
M204 S5000
M205 X30 Y30
G0 F3600 X117.887 Y115.332
M204 S500
M205 X20 Y20
G1 F1500 X117.995 Y115.362 E24.44632
G1 X118.003 Y115.364 E24.44673
G1 X118.154 Y115.427 E24.45489
G1 X118.42 Y115.6 E24.47072
G1 X118.467 Y115.634 E24.47361
G1 X118.5 Y115.662 E24.47577
G1 X118.664 Y115.834 E24.48763
G1 X118.875 Y116.159 E24.50696
G1 X118.907 Y116.238 E24.51121
G1 X118.94 Y116.335 E24.51633
G1 X118.945 Y116.355 E24.51735
G1 X118.996 Y116.671 E24.53332
G1 X118.996 Y116.691 E24.53432
G1 X118.983 Y117.018 E24.55065
G1 X118.961 Y117.127 E24.5562
G1 X118.913 Y117.301 E24.5652
G1 X118.91 Y117.311 E24.56572
G1 X118.83 Y117.479 E24.57501
G1 X118.686 Y117.702 E24.58825
G1 X118.646 Y117.756 E24.5916
G1 X118.642 Y117.761 E24.59192
G1 X118.524 Y117.87 E24.59994
G1 X118.406 Y117.967 E24.60756
G1 X118.132 Y118.145 E24.62386
G1 X117.849 Y118.28 E24.6395
G1 X117.526 Y118.411 E24.65689
G1 X116.804 Y118.118 E24.69576
G1 X116.685 Y118.039 E24.70289
G1 X116.574 Y117.959 E24.70972
G1 X116.354 Y117.755 E24.72468
G1 X116.171 Y117.471 E24.74154
G1 X116.101 Y117.328 E24.74948
G1 X116.079 Y117.26 E24.75305
G1 X116.017 Y117.034 E24.76474
G1 X116.017 Y117.032 E24.76484
