;FLAVOR:Marlin
;TIME:3061
;Filament used: 2.08778m
;Layer height: 0.2
;Generated with Cura_SteamEngine 3.6.0
M140 S40
M105
M190 S40
M104 S205
M105
M109 S205
M82 ;absolute extrusion mode
; Ender 3 Custom Start G-code
G28 ; Home all axes
G92 E0 ; Reset Extruder
G1 Z2.0 F3000 ; Move Z Axis up little to prevent scratching of Heat Bed
G1 X0.1 Y20 Z0.3 F5000.0 ; Move to start position
G1 X0.1 Y200.0 Z0.3 F1500.0 E15 ; Draw the first line
G1 X0.4 Y200.0 Z0.3 F5000.0 ; Move to side a little
G1 X0.4 Y20 Z0.3 F1500.0 E30 ; Draw the second line
G92 E0 ; Reset Extruder
G1 Z2.0 F3000 ; Move Z Axis up little to prevent scratching of Heat Bed
G90 ;absolute xyz mode
; End of custom start GCode
G92 E0
G1 F3000 E-10
;LAYER_COUNT:200
;LAYER:0
G91; Put in relative mode
G1 F3000 E-10; retract
G1 F5000 Z5; Lower bed by 10mm
G90; Put in absolute mode
G1 F9000 X0 Y235.0; Back Home
G4 P500; WaitG91; Put in relative mode
G1 F5000 Z-5; Raise the bed back up 10mm
G90; Put back in absolute mode
M107
M204 S5000
M205 X30 Y30
;MESH:PYRAMIDE.stl
G0 F3600 X110.935 Y100.454 Z0.3
M204 S500
M205 X20 Y20
;TYPE:WALL-INNER
G1 F3000 E0
G1 F1500 X109.811 Y100.931 E0.06092
G1 X108.723 Y101.483 E0.12178
G1 X107.672 Y102.105 E0.18271
G1 X106.665 Y102.796 E0.24364
G1 X105.709 Y103.551 E0.30442
G1 X104.803 Y104.37 E0.36535
G1 X103.954 Y105.249 E0.42632
G1 X103.166 Y106.18 E0.48717
G1 X102.441 Y107.164 E0.54815
G1 X101.786 Y108.192 E0.60896
G1 X101.198 Y109.262 E0.66987
G1 X100.685 Y110.37 E0.73079
G1 X100.246 Y111.509 E0.79169
G1 X99.884 Y112.674 E0.85255
G1 X99.601 Y113.861 E0.91343
G1 X99.397 Y115.066 E0.97441
G1 X99.276 Y116.28 E1.03527
G1 X99.235 Y117.5 E1.09617
G1 X99.276 Y118.72 E1.15707
G1 X99.397 Y119.934 E1.21794
G1 X99.601 Y121.139 E1.27891
G1 X99.884 Y122.326 E1.33979
G1 X100.246 Y123.491 E1.40066
G1 X100.685 Y124.63 E1.46156
G1 X101.198 Y125.738 E1.52247
G1 X101.786 Y126.808 E1.58338
G1 X102.441 Y127.836 E1.6442
G1 X103.166 Y128.82 E1.70517
G1 X103.954 Y129.751 E1.76603
G1 X104.803 Y130.63 E1.82699
G1 X105.709 Y131.449 E1.88793
G1 X106.665 Y132.204 E1.9487
G1 X107.672 Y132.895 E2.00963
G1 X108.723 Y133.517 E2.07056
G1 X109.811 Y134.069 E2.13143
G1 X110.935 Y134.546 E2.19234
G1 X112.089 Y134.944 E2.25325
G1 X113.266 Y135.267 E2.31414
G1 X114.461 Y135.511 E2.37499
G1 X115.672 Y135.673 E2.43594
G1 X116.89 Y135.755 E2.49685
G1 X118.11 Y135.755 E2.55771
G1 X119.328 Y135.673 E2.61862
G1 X120.539 Y135.511 E2.67957
G1 X121.734 Y135.267 E2.74042
G1 X122.911 Y134.944 E2.80131
G1 X124.065 Y134.546 E2.86221
G1 X125.189 Y134.069 E2.92313
G1 X126.277 Y133.517 E2.984
G1 X127.328 Y132.895 E3.04493
G1 X128.335 Y132.204 E3.10586
G1 X129.291 Y131.449 E3.16663
G1 X130.197 Y130.63 E3.22756
G1 X131.046 Y129.751 E3.28853
G1 X131.834 Y128.82 E3.34938
G1 X132.559 Y127.836 E3.41036
G1 X133.214 Y126.808 E3.47117
G1 X133.802 Y125.738 E3.53209
G1 X134.315 Y124.63 E3.593
G1 X134.754 Y123.491 E3.6539
G1 X135.116 Y122.326 E3.71477
G1 X135.399 Y121.139 E3.77564
G1 X135.603 Y119.934 E3.83662
G1 X135.724 Y118.72 E3.89748
G1 X135.765 Y117.5 E3.95839
G1 X135.724 Y116.28 E4.01929
G1 X135.603 Y115.066 E4.08015
G1 X135.399 Y113.861 E4.14113
G1 X135.116 Y112.674 E4.202
G1 X134.754 Y111.509 E4.26287
G1 X134.315 Y110.37 E4.32377
G1 X133.802 Y109.262 E4.38468
G1 X133.214 Y108.192 E4.4456
G1 X132.559 Y107.164 E4.50641
G1 X131.834 Y106.18 E4.56739
G1 X131.046 Y105.249 E4.62824
G1 X130.197 Y104.37 E4.68921
G1 X129.291 Y103.551 E4.75014
G1 X128.335 Y102.796 E4.81091
G1 X127.328 Y102.105 E4.87184
G1 X126.277 Y101.483 E4.93277
G1 X125.189 Y100.931 E4.99364
G1 X124.065 Y100.454 E5.05456
G1 X122.911 Y100.056 E5.11546
G1 X121.734 Y99.733 E5.17635
G1 X120.539 Y99.489 E5.2372
G1 X119.328 Y99.327 E5.29815
G1 X118.11 Y99.245 E5.35906
G1 X116.89 Y99.245 E5.41992
G1 X115.672 Y99.327 E5.48083
G1 X114.461 Y99.489 E5.54178
G1 X113.266 Y99.733 E5.60263
G1 X112.089 Y100.056 E5.66352
G1 X110.935 Y100.454 E5.72443
M204 S5000
M205 X30 Y30
G0 F3600 X115.708 Y99.686
G0 X116.902 Y99.606
G0 X118.098 Y99.606
G0 X119.292 Y99.686
G0 X120.478 Y99.845
G0 X121.65 Y100.084
G0 X122.804 Y100.4
G0 X123.935 Y100.791
G0 X125.036 Y101.258
G0 X127.134 Y102.409
G0 X128.121 Y103.086
G0 X129.058 Y103.827
G0 X129.946 Y104.63
G0 X130.778 Y105.491
G0 X131.551 Y106.404
G0 X132.261 Y107.368
G0 X132.904 Y108.376
G0 X133.48 Y109.425
G0 X133.983 Y110.511
G0 X134.413 Y111.627
G0 X134.7 Y112.552
G0 X141.406 Y141.406
M204 S500
M205 X20 Y20
G1 F1500 X93.594 Y141.406 E8.10978
G1 X93.594 Y93.594 E10.49513
G1 X141.406 Y93.594 E12.88048
G1 X141.406 Y141.406 E15.26583
M204 S5000
M205 X30 Y30
G0 F3600 X141.806 Y141.806
M204 S500
M205 X20 Y20
G1 F1500 X93.194 Y141.806 E17.69109
G1 X93.194 Y93.194 E20.11635
G1 X141.806 Y93.194 E22.54161
G1 X141.806 Y141.806 E24.96688
M204 S5000
M205 X30 Y30
G0 F3600 X141.736 Y141.736
G0 X134.768 Y112.77
G0 X134.413 Y111.627
G0 X133.983 Y110.511
G0 X133.48 Y109.425
G0 X132.904 Y108.376
G0 X132.261 Y107.368
G0 X131.551 Y106.404
G0 X130.778 Y105.491
G0 X129.946 Y104.63
G0 X129.058 Y103.827
G0 X128.121 Y103.086
G0 X127.134 Y102.409
G0 X125.036 Y101.258
G0 X123.935 Y100.791
G0 X122.804 Y100.4
G0 X121.65 Y100.084
G0 X120.478 Y99.845
G0 X119.292 Y99.686
G0 X118.098 Y99.606
G0 X116.902 Y99.606
G0 X115.708 Y99.686
G0 X114.522 Y99.845
G0 X113.35 Y100.084
G0 X112.697 Y100.262
G0 X109.938 Y101.204
G0 X109.98 Y101.294
M204 S500
M205 X20 Y20
G1 F1500 X108.915 Y101.834 E25.02645
G1 X107.887 Y102.442 E25.08604
G1 X106.902 Y103.118 E25.14564
G1 X105.967 Y103.857 E25.2051
G1 X105.081 Y104.658 E25.26468
G1 X104.251 Y105.517 E25.32428
G1 X103.48 Y106.428 E25.38382
G1 X102.771 Y107.39 E25.44344
G1 X102.13 Y108.396 E25.50295
G1 X101.555 Y109.443 E25.56255
G1 X101.053 Y110.526 E25.6221
G1 X100.624 Y111.64 E25.68166
G1 X100.27 Y112.78 E25.74121
G1 X99.993 Y113.941 E25.80076
G1 X99.794 Y115.119 E25.86036
G1 X99.675 Y116.307 E25.91993
G1 X99.635 Y117.5 E25.97948
G1 X99.675 Y118.693 E26.03903
G1 X99.794 Y119.881 E26.0986
G1 X99.993 Y121.059 E26.1582
G1 X100.27 Y122.22 E26.21775
G1 X100.624 Y123.36 E26.2773
G1 X101.053 Y124.474 E26.33686
G1 X101.555 Y125.557 E26.39641
G1 X102.13 Y126.604 E26.45601
G1 X102.771 Y127.61 E26.51552
G1 X103.48 Y128.572 E26.57514
G1 X104.251 Y129.483 E26.63468
G1 X105.081 Y130.342 E26.69428
G1 X105.967 Y131.143 E26.75387
G1 X106.902 Y131.882 E26.81332
G1 X107.887 Y132.558 E26.87293
G1 X108.915 Y133.166 E26.93251
G1 X109.98 Y133.706 E26.99208
G1 X111.079 Y134.172 E27.05164
G1 X112.207 Y134.562 E27.11118
G1 X113.359 Y134.878 E27.17078
G1 X114.528 Y135.116 E27.2303
G1 X115.712 Y135.275 E27.2899
G1 X116.903 Y135.355 E27.34945
G1 X118.097 Y135.355 E27.40902
G1 X119.288 Y135.275 E27.46857
G1 X120.472 Y135.116 E27.52817
G1 X121.641 Y134.878 E27.58769
G1 X122.793 Y134.562 E27.64729
G1 X123.921 Y134.172 E27.70683
G1 X125.02 Y133.706 E27.76639
G1 X126.085 Y133.166 E27.82596
G1 X127.113 Y132.558 E27.88555
G1 X128.098 Y131.882 E27.94515
G1 X129.033 Y131.143 E28.00461
G1 X129.919 Y130.342 E28.0642
G1 X130.749 Y129.483 E28.12379
G1 X131.52 Y128.572 E28.18333
G1 X132.229 Y127.61 E28.24295
G1 X132.87 Y126.604 E28.30246
G1 X133.445 Y125.557 E28.36206
G1 X133.947 Y124.474 E28.42161
G1 X134.376 Y123.36 E28.48117
G1 X134.73 Y122.22 E28.54072
G1 X135.007 Y121.059 E28.60027
G1 X135.206 Y119.881 E28.65987
G1 X135.325 Y118.693 E28.71944
G1 X135.365 Y117.5 E28.77899
G1 X135.325 Y116.307 E28.83854
G1 X135.206 Y115.119 E28.89811
G1 X135.007 Y113.941 E28.95771
G1 X134.73 Y112.78 E29.01726
G1 X134.376 Y111.64 E29.07682
G1 X133.947 Y110.526 E29.13637
G1 X133.445 Y109.443 E29.19593
G1 X132.87 Y108.396 E29.25552
G1 X132.229 Y107.39 E29.31503
G1 X131.52 Y106.428 E29.37465
G1 X130.749 Y105.517 E29.43419
G1 X129.919 Y104.658 E29.49379
G1 X129.033 Y103.857 E29.55338
G1 X128.098 Y103.118 E29.61283
G1 X127.113 Y102.442 E29.67244
G1 X126.085 Y101.834 E29.73202
G1 X125.02 Y101.294 E29.79159
G1 X123.921 Y100.828 E29.85115
G1 X122.793 Y100.438 E29.91069
G1 X121.641 Y100.122 E29.97029
G1 X120.472 Y99.884 E30.02981
G1 X119.288 Y99.725 E30.08941
G1 X118.097 Y99.645 E30.14896
G1 X116.903 Y99.645 E30.20853
G1 X115.712 Y99.725 E30.26808
G1 X114.528 Y99.884 E30.32768
G1 X113.359 Y100.122 E30.3872
G1 X112.207 Y100.438 E30.4468
G1 X111.079 Y100.828 E30.50634
G1 X109.98 Y101.294 E30.5659
M204 S5000
M205 X30 Y30
G0 F3600 X110.149 Y101.657
M204 S500
M205 X20 Y20
;TYPE:WALL-OUTER
G1 F1500 X109.107 Y102.185 E30.62418
G1 X108.102 Y102.779 E30.68242
G1 X107.14 Y103.44 E30.74065
G1 X106.225 Y104.163 E30.79883
G1 X105.359 Y104.946 E30.85708
G1 X104.548 Y105.785 E30.9153
G1 X103.794 Y106.676 E30.97353
G1 X103.101 Y107.616 E31.03179
G1 X102.474 Y108.6 E31.09
G1 X101.912 Y109.624 E31.14828
G1 X101.421 Y110.682 E31.20647
G1 X101.002 Y111.771 E31.26468
G1 X100.656 Y112.886 E31.32293
G1 X100.385 Y114.021 E31.38114
G1 X100.191 Y115.172 E31.43938
G1 X100.074 Y116.334 E31.49764
G1 X100.035 Y117.5 E31.55585
G1 X100.074 Y118.666 E31.61405
G1 X100.191 Y119.828 E31.67232
G1 X100.385 Y120.979 E31.73055
G1 X100.656 Y122.114 E31.78877
G1 X101.002 Y123.229 E31.84701
G1 X101.421 Y124.318 E31.90523
G1 X101.912 Y125.376 E31.96342
G1 X102.474 Y126.4 E32.02169
G1 X103.101 Y127.384 E32.0799
G1 X103.794 Y128.324 E32.13817
G1 X104.548 Y129.215 E32.1964
G1 X105.359 Y130.054 E32.25462
G1 X106.225 Y130.837 E32.31286
G1 X107.14 Y131.56 E32.37104
G1 X108.102 Y132.221 E32.42928
G1 X109.107 Y132.815 E32.48752
G1 X110.149 Y133.343 E32.5458
G1 X111.223 Y133.798 E32.60399
G1 X112.326 Y134.18 E32.66223
G1 X113.452 Y134.489 E32.72048
G1 X114.595 Y134.721 E32.77867
G1 X115.752 Y134.877 E32.83691
G1 X116.916 Y134.955 E32.89511
G1 X118.084 Y134.955 E32.95339
G1 X119.248 Y134.877 E33.01159
G1 X120.405 Y134.721 E33.06983
G1 X121.548 Y134.489 E33.12802
G1 X122.674 Y134.18 E33.18627
G1 X123.777 Y133.798 E33.24451
G1 X124.851 Y133.343 E33.3027
G1 X125.893 Y132.815 E33.36098
G1 X126.898 Y132.221 E33.41922
G1 X127.86 Y131.56 E33.47746
G1 X128.775 Y130.837 E33.53564
G1 X129.641 Y130.054 E33.59388
G1 X130.452 Y129.215 E33.6521
G1 X131.206 Y128.324 E33.71033
G1 X131.899 Y127.384 E33.7686
G1 X132.526 Y126.4 E33.82681
G1 X133.088 Y125.376 E33.88508
G1 X133.579 Y124.318 E33.94327
G1 X133.998 Y123.229 E34.00149
G1 X134.344 Y122.114 E34.05973
G1 X134.615 Y120.979 E34.11795
G1 X134.809 Y119.828 E34.17618
G1 X134.926 Y118.666 E34.23445
G1 X134.965 Y117.5 E34.29265
G1 X134.926 Y116.334 E34.35086
G1 X134.809 Y115.172 E34.40912
G1 X134.615 Y114.021 E34.46736
G1 X134.344 Y112.886 E34.52557
G1 X133.998 Y111.771 E34.58382
G1 X133.579 Y110.682 E34.64203
G1 X133.088 Y109.624 E34.70022
G1 X132.526 Y108.6 E34.7585
G1 X131.899 Y107.616 E34.81671
G1 X131.206 Y106.676 E34.87497
G1 X130.452 Y105.785 E34.9332
G1 X129.641 Y104.946 E34.99142
G1 X128.775 Y104.163 E35.04967
G1 X127.86 Y103.44 E35.10785
G1 X126.898 Y102.779 E35.16608
G1 X125.893 Y102.185 E35.22432
G1 X124.851 Y101.657 E35.2826
G1 X123.777 Y101.202 E35.34079
G1 X122.674 Y100.82 E35.39903
G1 X121.548 Y100.511 E35.45728
G1 X120.405 Y100.279 E35.51547
G1 X119.248 Y100.123 E35.57372
G1 X118.084 Y100.045 E35.63192
G1 X116.916 Y100.045 E35.69019
G1 X115.752 Y100.123 E35.74839
G1 X114.595 Y100.279 E35.80664
G1 X113.452 Y100.511 E35.86482
G1 X112.326 Y100.82 E35.92308
G1 X111.223 Y101.202 E35.98131
G1 X110.149 Y101.657 E36.03951
M204 S5000
M205 X30 Y30
G0 F3600 X109.971 Y101.747
G0 X109.746 Y101.3
G0 X112.196 Y100.4
G0 X113.35 Y100.084
G0 X114.522 Y99.845
G0 X115.708 Y99.686
G0 X116.902 Y99.606
G0 X118.098 Y99.606
G0 X119.292 Y99.686
G0 X120.478 Y99.845
G0 X121.65 Y100.084
G0 X122.804 Y100.4
G0 X123.935 Y100.791
G0 X125.036 Y101.258
G0 X127.134 Y102.409
G0 X128.121 Y103.086
G0 X129.058 Y103.827
G0 X129.946 Y104.63
G0 X130.778 Y105.491
G0 X131.551 Y106.404
G0 X132.261 Y107.368
G0 X132.904 Y108.376
G0 X133.48 Y109.425
G0 X133.983 Y110.511
G0 X134.413 Y111.627
G0 X134.613 Y112.274
G0 X141.736 Y141.736
G0 X142.206 Y142.206
M204 S500
M205 X20 Y20
G1 F1500 X92.794 Y142.206 E38.50468
G1 X92.794 Y92.794 E40.96985
G1 X142.206 Y92.794 E43.43503
G1 X142.206 Y142.206 E45.9002
M204 S5000
M205 X30 Y30
G0 F3600 X142.006 Y142.206
G0 X141.736 Y141.736
G0 X141.016 Y141.016
M204 S500
M205 X20 Y20
;TYPE:SKIN
G1 F1500 X93.984 Y141.016 E48.24664
G1 X93.984 Y93.984 E50.59308
G1 X141.016 Y93.984 E52.93951
G1 X141.016 Y141.016 E55.28595
M204 S5000
M205 X30 Y30
G0 F3600 X130.468 Y130.911
M204 S500
M205 X20 Y20
G1 F1500 X131.335 Y130.013 E55.34822
G1 X132.14 Y129.062 E55.41038
G1 X132.881 Y128.057 E55.47268
G1 X133.55 Y127.007 E55.53479
G1 X134.151 Y125.914 E55.59702
G1 X134.674 Y124.782 E55.65924
G1 X135.123 Y123.619 E55.72143
G1 X135.492 Y122.429 E55.78359
G1 X135.781 Y121.217 E55.84575
G1 X135.989 Y119.986 E55.90804
G1 X136.114 Y118.746 E55.97021
G1 X136.155 Y117.5 E56.03241
G1 X136.114 Y116.254 E56.09461
G1 X135.989 Y115.014 E56.15679
G1 X135.781 Y113.783 E56.21907
G1 X135.492 Y112.571 E56.28123
G1 X135.123 Y111.381 E56.34339
G1 X134.674 Y110.218 E56.40559
G1 X134.151 Y109.086 E56.4678
G1 X133.55 Y107.993 E56.53003
G1 X132.881 Y106.943 E56.59214
G1 X132.14 Y105.938 E56.65444
G1 X131.335 Y104.987 E56.7166
G1 X130.468 Y104.089 E56.77887
G1 X129.543 Y103.253 E56.84108
G1 X128.567 Y102.482 E56.90313
G1 X127.538 Y101.776 E56.96539
G1 X126.464 Y101.141 E57.02764
G1 X125.353 Y100.578 E57.08978
G1 X124.205 Y100.09 E57.15201
G1 X123.026 Y99.683 E57.21424
G1 X121.825 Y99.353 E57.27637
G1 X120.604 Y99.105 E57.33853
G1 X119.367 Y98.939 E57.4008
G1 X118.123 Y98.855 E57.46301
G1 X116.877 Y98.855 E57.52517
G1 X115.633 Y98.939 E57.58737
G1 X114.396 Y99.105 E57.64964
G1 X113.175 Y99.353 E57.7118
G1 X111.974 Y99.683 E57.77394
G1 X110.795 Y100.09 E57.83617
G1 X109.647 Y100.578 E57.8984
G1 X108.536 Y101.141 E57.96054
G1 X107.462 Y101.776 E58.02279
G1 X106.433 Y102.482 E58.08504
G1 X105.457 Y103.253 E58.1471
G1 X104.532 Y104.089 E58.2093
G1 X103.665 Y104.987 E58.27158
G1 X102.86 Y105.938 E58.33374
G1 X102.119 Y106.943 E58.39603
G1 X101.45 Y107.993 E58.45815
G1 X100.849 Y109.086 E58.52038
G1 X100.326 Y110.218 E58.58259
G1 X99.877 Y111.381 E58.64478
G1 X99.508 Y112.571 E58.70694
G1 X99.219 Y113.783 E58.7691
G1 X99.011 Y115.014 E58.83139
G1 X98.886 Y116.254 E58.89357
G1 X98.845 Y117.5 E58.95576
G1 X98.886 Y118.746 E59.01796
G1 X99.011 Y119.986 E59.08014
G1 X99.219 Y121.217 E59.14242
G1 X99.508 Y122.429 E59.20459
G1 X99.877 Y123.619 E59.26674
G1 X100.326 Y124.782 E59.32894
G1 X100.849 Y125.914 E59.39115
G1 X101.45 Y127.007 E59.45338
G1 X102.119 Y128.057 E59.5155
G1 X102.86 Y129.062 E59.57779
G1 X103.665 Y130.013 E59.63995
G1 X104.532 Y130.911 E59.70223
G1 X105.457 Y131.747 E59.76443
G1 X106.433 Y132.518 E59.82648
G1 X107.462 Y133.224 E59.88874
G1 X108.536 Y133.859 E59.95099
G1 X109.647 Y134.422 E60.01313
G1 X110.795 Y134.91 E60.07536
G1 X111.974 Y135.317 E60.13759
G1 X113.175 Y135.647 E60.19973
G1 X114.396 Y135.895 E60.26189
G1 X115.633 Y136.061 E60.32415
G1 X116.877 Y136.145 E60.38636
G1 X118.123 Y136.145 E60.44852
G1 X119.367 Y136.061 E60.51073
G1 X120.604 Y135.895 E60.57299
G1 X121.825 Y135.647 E60.63515
G1 X123.026 Y135.317 E60.69729
G1 X124.205 Y134.91 E60.75952
G1 X125.353 Y134.422 E60.82175
G1 X126.464 Y133.859 E60.88389
G1 X127.538 Y133.224 E60.94614
G1 X128.567 Y132.518 E61.0084
G1 X129.543 Y131.747 E61.07045
G1 X130.468 Y130.911 E61.13265
M204 S5000
M205 X30 Y30
G0 F3600 X125.036 Y133.742
G0 X123.935 Y134.209
G0 X121.879 Y134.845
G0 X94.449 Y140.835
M204 S500
M205 X20 Y20
G1 F1500 X94.163 Y140.55 E61.1528
M204 S5000
M205 X30 Y30
G0 F3600 X94.163 Y139.984
M204 S500
M205 X20 Y20
G1 F1500 X95.015 Y140.835 E61.21288
M204 S5000
M205 X30 Y30
G0 F3600 X95.581 Y140.835
M204 S500
M205 X20 Y20
G1 F1500 X94.163 Y139.418 E61.31289
M204 S5000
M205 X30 Y30
G0 F3600 X94.163 Y138.853
M204 S500
M205 X20 Y20
G1 F1500 X96.146 Y140.835 E61.45276
M204 S5000
M205 X30 Y30
G0 F3600 X96.712 Y140.835
M204 S500
M205 X20 Y20
G1 F1500 X94.163 Y138.287 E61.63257
M204 S5000
M205 X30 Y30
G0 F3600 X94.163 Y137.721
M204 S500
M205 X20 Y20
G1 F1500 X97.278 Y140.835 E61.85232
M204 S5000
M205 X30 Y30
G0 F3600 X97.843 Y140.835
M204 S500
M205 X20 Y20
G1 F1500 X94.163 Y137.156 E62.11193
M204 S5000
M205 X30 Y30
G0 F3600 X94.163 Y136.59
M204 S500
