;FLAVOR:Marlin
;TIME:1395
;Filament used: 0.940516m
;Layer height: 0.3
;Generated with Cura_SteamEngine 3.6.0
M140 S40
M105
M190 S40
M104 S205
M105
M109 S205
M82 ;absolute extrusion mode
; Ender 3 Custom Start G-code
G28 ; Home all axes
G92 E0 ; Reset Extruder
G1 Z2.0 F3000 ; Move Z Axis up little to prevent scratching of Heat Bed
G1 X0.1 Y20 Z0.3 F5000.0 ; Move to start position
G1 X0.1 Y200.0 Z0.3 F1500.0 E15 ; Draw the first line
G1 X0.4 Y200.0 Z0.3 F5000.0 ; Move to side a little
G1 X0.4 Y20 Z0.3 F1500.0 E30 ; Draw the second line
G92 E0 ; Reset Extruder
G1 Z2.0 F3000 ; Move Z Axis up little to prevent scratching of Heat Bed
G90 ;absolute xyz mode
; End of custom start GCode
G92 E0
G1 F3000 E-10
;LAYER_COUNT:167
;LAYER:0
G91; Put in relative mode
G1 F3000 E-13; retract
G90; Put in absolute mode
G1 F9000 X0 Y232.0; Back Home
G4 P500; WaitG90; Put back in absolute mode
M107
M204 S5000
M205 X30 Y30
;MESH:xyzCalibration_cube.stl
G0 F3600 X121.9 Y121.9 Z0.3
M204 S500
M205 X20 Y20
;TYPE:WALL-INNER
G1 F3000 E0
G1 F1500 X113.1 Y121.9 E0.43903
G1 X113.1 Y113.1 E0.87807
G1 X121.9 Y113.1 E1.3171
G1 X121.9 Y121.9 E1.75614
M204 S5000
M205 X30 Y30
G0 F3600 X122.3 Y122.3
M204 S500
M205 X20 Y20
;TYPE:WALL-OUTER
G1 F1500 X112.7 Y122.3 E2.23508
G1 X112.7 Y112.7 E2.71403
G1 X122.3 Y112.7 E3.19297
G1 X122.3 Y122.3 E3.67192
M204 S5000
M205 X30 Y30
G0 F3600 X122.1 Y122.3
G0 X121.83 Y121.83
G0 X121.51 Y121.51
M204 S500
M205 X20 Y20
;TYPE:SKIN
G1 F1500 X113.49 Y121.51 E4.07204
G1 X113.49 Y113.49 E4.47216
G1 X121.51 Y113.49 E4.87228
G1 X121.51 Y121.51 E5.2724
M204 S5000
M205 X30 Y30
G0 F3600 X117.53 Y117.53
M204 S500
M205 X20 Y20
G1 F1500 X117.47 Y117.53 E5.27539
G1 X117.47 Y117.47 E5.27838
G1 X117.53 Y117.47 E5.28138
G1 X117.53 Y117.53 E5.28437
M204 S5000
M205 X30 Y30
G0 F3600 X117.93 Y117.93
M204 S500
M205 X20 Y20
G1 F1500 X117.07 Y117.93 E5.32728
G1 X117.07 Y117.07 E5.37018
G1 X117.93 Y117.07 E5.41309
G1 X117.93 Y117.93 E5.45599
M204 S5000
M205 X30 Y30
G0 F3600 X118.33 Y118.33
M204 S500
M205 X20 Y20
G1 F1500 X116.67 Y118.33 E5.53881
G1 X116.67 Y116.67 E5.62163
G1 X118.33 Y116.67 E5.70445
G1 X118.33 Y118.33 E5.78726
M204 S5000
M205 X30 Y30
G0 F3600 X118.73 Y118.73
M204 S500
M205 X20 Y20
G1 F1500 X116.27 Y118.73 E5.90999
G1 X116.27 Y116.27 E6.03272
G1 X118.73 Y116.27 E6.15545
G1 X118.73 Y118.73 E6.27818
M204 S5000
M205 X30 Y30
G0 F3600 X119.13 Y119.13
M204 S500
M205 X20 Y20
G1 F1500 X115.87 Y119.13 E6.44083
G1 X115.87 Y115.87 E6.60347
G1 X119.13 Y115.87 E6.76611
G1 X119.13 Y119.13 E6.92875
M204 S5000
M205 X30 Y30
G0 F3600 X119.53 Y119.53
M204 S500
M205 X20 Y20
G1 F1500 X115.47 Y119.53 E7.13131
G1 X115.47 Y115.47 E7.33386
G1 X119.53 Y115.47 E7.53641
G1 X119.53 Y119.53 E7.73897
M204 S5000
M205 X30 Y30
G0 F3600 X119.93 Y119.93
M204 S500
M205 X20 Y20
G1 F1500 X115.07 Y119.93 E7.98143
G1 X115.07 Y115.07 E8.2239
G1 X119.93 Y115.07 E8.46637
G1 X119.93 Y119.93 E8.70883
M204 S5000
M205 X30 Y30
G0 F3600 X120.33 Y120.33
M204 S500
M205 X20 Y20
G1 F1500 X114.67 Y120.33 E8.99121
G1 X114.67 Y114.67 E9.27359
G1 X120.33 Y114.67 E9.55597
G1 X120.33 Y120.33 E9.83835
M204 S5000
M205 X30 Y30
G0 F3600 X120.73 Y120.73
M204 S500
M205 X20 Y20
G1 F1500 X114.27 Y120.73 E10.16064
G1 X114.27 Y114.27 E10.48293
G1 X120.73 Y114.27 E10.80522
G1 X120.73 Y120.73 E11.12751
M204 S5000
M205 X30 Y30
G0 F3600 X121.13 Y121.13
M204 S500
M205 X20 Y20
G1 F1500 X113.87 Y121.13 E11.48971
G1 X113.87 Y113.87 E11.85192
G1 X121.13 Y113.87 E12.21412
G1 X121.13 Y121.13 E12.57632
M204 S5000
M205 X30 Y30
;MESH:NONMESH
G0 F3600 X121.83 Y121.83
G0 X121.9 Y121.9
;TIME_ELAPSED:19.562183
;LAYER:1
G91; Put in relative mode
G1 F3000 E-13; retract
G90; Put in absolute mode
G1 F9000 X0 Y232.0; Back Home
G4 P500; WaitG90; Put back in absolute mode
M140 S40
M106 S255
;MESH:xyzCalibration_cube.stl
G0 F5400 X121.9 Y121.9 Z0.6
M204 S500
M205 X20 Y20
;TYPE:WALL-INNER
G1 F2170.5 X113.1 Y121.9 E13.01536
G1 X113.1 Y113.1 E13.45439
G1 X121.9 Y113.1 E13.89342
G1 X121.9 Y121.9 E14.33246
M204 S5000
M205 X30 Y30
G0 F5400 X122.3 Y122.3
M204 S500
M205 X20 Y20
;TYPE:WALL-OUTER
G1 F1447 X112.7 Y122.3 E14.8114
G1 X112.7 Y112.7 E15.29035
G1 X122.3 Y112.7 E15.7693
G1 X122.3 Y122.3 E16.24824
M204 S5000
M205 X30 Y30
G0 F5400 X122.1 Y122.3
G0 X121.83 Y121.83
G0 X121.51 Y121.51
M204 S500
M205 X20 Y20
;TYPE:SKIN
G1 F1447 X113.49 Y121.51 E16.64836
G1 X113.49 Y113.49 E17.04848
G1 X121.51 Y113.49 E17.4486
G1 X121.51 Y121.51 E17.84872
M204 S5000
M205 X30 Y30
G0 F5400 X121.129 Y121.129
M204 S500
M205 X20 Y20
G1 F1447 X121.129 Y120.983 E17.856
G1 X120.983 Y121.129 E17.8663
G1 X120.418 Y121.129 E17.89449
G1 X121.129 Y120.418 E17.94466
G1 X121.129 Y119.852 E17.97289
G1 X119.852 Y121.129 E18.06299
G1 X119.286 Y121.129 E18.09123
G1 X121.129 Y119.286 E18.22127
G1 X121.129 Y118.721 E18.24945
G1 X118.721 Y121.129 E18.41935
G1 X118.155 Y121.129 E18.44759
G1 X121.129 Y118.155 E18.65742
G1 X121.129 Y117.589 E18.68566
G1 X117.589 Y121.129 E18.93542
G1 X117.024 Y121.129 E18.96361
G1 X121.129 Y117.024 E19.25324
G1 X121.129 Y116.458 E19.28148
G1 X116.458 Y121.129 E19.61104
G1 X115.892 Y121.129 E19.63928
G1 X121.129 Y115.892 E20.00878
G1 X121.129 Y115.326 E20.03702
G1 X115.326 Y121.129 E20.44645
G1 X114.761 Y121.129 E20.47464
G1 X121.129 Y114.761 E20.92394
G1 X121.129 Y114.195 E20.95217
G1 X114.195 Y121.129 E21.44141
G1 X113.87 Y121.129 E21.45762
G1 X113.87 Y120.889 E21.46959
G1 X120.889 Y113.869 E21.96486
G1 X120.324 Y113.869 E21.99304
G1 X113.87 Y120.323 E22.44841
G1 X113.87 Y119.757 E22.47665
G1 X119.758 Y113.869 E22.89208
G1 X119.192 Y113.869 E22.92032
G1 X113.87 Y119.192 E23.29585
G1 X113.87 Y118.626 E23.32408
G1 X118.627 Y113.869 E23.65972
G1 X118.061 Y113.869 E23.68795
G1 X113.87 Y118.06 E23.98365
G1 X113.87 Y117.494 E24.01189
G1 X117.495 Y113.869 E24.26765
G1 X116.93 Y113.869 E24.29584
G1 X113.87 Y116.929 E24.51174
G1 X113.87 Y116.363 E24.53998
G1 X116.364 Y113.869 E24.71594
G1 X115.798 Y113.869 E24.74418
G1 X113.87 Y115.797 E24.88021
G1 X113.87 Y115.232 E24.9084
G1 X115.232 Y113.869 E25.00453
G1 X114.667 Y113.869 E25.03272
G1 X113.87 Y114.666 E25.08895
G1 X113.87 Y114.1 E25.11719
G1 X114.101 Y113.869 E25.13349
M204 S5000
M205 X30 Y30
G0 F5400 X113.869 Y113.869
M204 S500
M205 X20 Y20
G1 F1447 X113.87 Y114.1 E25.14501
M204 S5000
M205 X30 Y30
;MESH:NONMESH
G0 F5400 X113.259 Y113.259
;TIME_ELAPSED:30.281907
;LAYER:2
G91; Put in relative mode
G1 F3000 E-13; retract
G90; Put in absolute mode
G1 F9000 X0 Y232.0; Back Home
G4 P500; WaitG90; Put back in absolute mode
;MESH:xyzCalibration_cube.stl
G0 F7200 X113.259 Y113.259 Z0.9
M204 S500
M205 X20 Y20
;TYPE:FILL
G1 F1200 X121.739 Y121.739 E25.74332
G1 X121.809 Y121.809
M204 S5000
M205 X30 Y30
G0 F7200 X121.8 Y121.809
G0 X113.26 Y121.739
M204 S500
M205 X20 Y20
G1 F1200 X121.739 Y113.26 E26.34156
G1 X121.809 Y113.19
M204 S5000
M205 X30 Y30
G0 F7200 X121.809 Y113.2
G0 X121.83 Y121.83
G0 X121.9 Y121.9
M204 S500
M205 X20 Y20
;TYPE:WALL-INNER
G1 F1200 X113.1 Y121.9 E26.7806
G1 X113.1 Y113.1 E27.21963
G1 X121.9 Y113.1 E27.65866
G1 X121.9 Y121.9 E28.0977
M204 S5000
M205 X30 Y30
G0 F7200 X122.3 Y122.3
M204 S500
M205 X20 Y20
;TYPE:WALL-OUTER
G1 F600 X112.7 Y122.3 E28.57664
G1 X112.7 Y112.7 E29.05559
G1 X122.3 Y112.7 E29.53454
G1 X122.3 Y122.3 E30.01348
M204 S5000
M205 X30 Y30
G0 F7200 X122.1 Y122.3
G0 X121.5 Y121.618
;MESH:NONMESH
G0 X113.259 Y113.259
;TIME_ELAPSED:37.580670
;LAYER:3
G91; Put in relative mode
G1 F3000 E-13; retract
G90; Put in absolute mode
G1 F9000 X0 Y232.0; Back Home
G4 P500; WaitG90; Put back in absolute mode
;MESH:xyzCalibration_cube.stl
G0 X113.259 Y113.259 Z1.2
M204 S500
M205 X20 Y20
;TYPE:FILL
G1 F1200 X121.739 Y121.739 E30.61179
G1 X121.809 Y121.809
M204 S5000
M205 X30 Y30
G0 F7200 X121.8 Y121.809
G0 X113.26 Y121.739
M204 S500
M205 X20 Y20
G1 F1200 X121.739 Y113.26 E31.21003
G1 X121.809 Y113.19
M204 S5000
M205 X30 Y30
G0 F7200 X121.809 Y113.2
G0 X121.83 Y121.83
G0 X121.9 Y121.9
M204 S500
M205 X20 Y20
;TYPE:WALL-INNER
G1 F1200 X113.1 Y121.9 E31.64906
G1 X113.1 Y113.1 E32.0881
G1 X121.9 Y113.1 E32.52713
G1 X121.9 Y121.9 E32.96617
M204 S5000
M205 X30 Y30
G0 F7200 X122.3 Y122.3
M204 S500
M205 X20 Y20
;TYPE:WALL-OUTER
G1 F600 X112.7 Y122.3 E33.44511
G1 X112.7 Y112.7 E33.92406
G1 X122.3 Y112.7 E34.403
G1 X122.3 Y122.3 E34.88195
M204 S5000
M205 X30 Y30
G0 F7200 X122.1 Y122.3
G0 X121.5 Y121.618
;MESH:NONMESH
G0 X113.259 Y113.259
;TIME_ELAPSED:44.879433
;LAYER:4
G91; Put in relative mode
G1 F3000 E-13; retract
G90; Put in absolute mode
G1 F9000 X0 Y232.0; Back Home
G4 P500; WaitG90; Put back in absolute mode
;MESH:xyzCalibration_cube.stl
G0 X113.259 Y113.259 Z1.5
M204 S500
M205 X20 Y20
;TYPE:FILL
G1 F1200 X121.739 Y121.739 E35.48026
G1 X121.809 Y121.809
M204 S5000
M205 X30 Y30
G0 F7200 X121.8 Y121.809
G0 X113.26 Y121.739
M204 S500
M205 X20 Y20
G1 F1200 X121.739 Y113.26 E36.0785
G1 X121.809 Y113.19
M204 S5000
M205 X30 Y30
G0 F7200 X121.809 Y113.2
G0 X121.83 Y121.83
G0 X121.9 Y121.9
M204 S500
M205 X20 Y20
;TYPE:WALL-INNER
G1 F1200 X113.1 Y121.9 E36.51753
G1 X113.1 Y113.1 E36.95657
G1 X121.9 Y113.1 E37.3956
G1 X121.9 Y121.9 E37.83463
M204 S5000
M205 X30 Y30
G0 F7200 X122.3 Y122.3
M204 S500
M205 X20 Y20
;TYPE:WALL-OUTER
G1 F600 X112.7 Y122.3 E38.31358
G1 X112.7 Y112.7 E38.79253
G1 X122.3 Y112.7 E39.27147
G1 X122.3 Y122.3 E39.75042
M204 S5000
M205 X30 Y30
G0 F7200 X122.1 Y122.3
G0 X121.5 Y121.618
;MESH:NONMESH
G0 X113.259 Y113.259
;TIME_ELAPSED:52.178196
;LAYER:5
G91; Put in relative mode
G1 F3000 E-13; retract
G90; Put in absolute mode
G1 F9000 X0 Y232.0; Back Home
G4 P500; WaitG90; Put back in absolute mode
;MESH:xyzCalibration_cube.stl
G0 X113.259 Y113.259 Z1.8
M204 S500
M205 X20 Y20
;TYPE:FILL
G1 F1200 X121.739 Y121.739 E40.34873
G1 X121.809 Y121.809
M204 S5000
M205 X30 Y30
G0 F7200 X121.8 Y121.809
G0 X113.26 Y121.739
M204 S500
M205 X20 Y20
G1 F1200 X121.739 Y113.26 E40.94697
G1 X121.809 Y113.19
M204 S5000
M205 X30 Y30
G0 F7200 X121.809 Y113.2
G0 X121.83 Y121.83
G0 X121.9 Y121.9
M204 S500
M205 X20 Y20
;TYPE:WALL-INNER
G1 F1200 X113.1 Y121.9 E41.386
G1 X113.1 Y113.1 E41.82503
G1 X121.9 Y113.1 E42.26407
G1 X121.9 Y121.9 E42.7031
M204 S5000
M205 X30 Y30
G0 F7200 X122.3 Y122.3
M204 S500
M205 X20 Y20
;TYPE:WALL-OUTER
G1 F600 X112.7 Y122.3 E43.18205
G1 X112.7 Y112.7 E43.66099
G1 X122.3 Y112.7 E44.13994
G1 X122.3 Y122.3 E44.61889
M204 S5000
M205 X30 Y30
G0 F7200 X122.1 Y122.3
G0 X121.5 Y121.618
;MESH:NONMESH
G0 X113.259 Y113.259
;TIME_ELAPSED:59.476958
;LAYER:6
G91; Put in relative mode
G1 F3000 E-13; retract
G90; Put in absolute mode
G1 F9000 X0 Y232.0; Back Home
G4 P500; WaitG90; Put back in absolute mode
;MESH:xyzCalibration_cube.stl
G0 X113.259 Y113.259 Z2.1
M204 S500
M205 X20 Y20
;TYPE:FILL
G1 F1200 X121.739 Y121.739 E45.2172
G1 X121.809 Y121.809
M204 S5000
M205 X30 Y30
G0 F7200 X121.8 Y121.809
G0 X113.26 Y121.739
M204 S500
M205 X20 Y20
G1 F1200 X121.739 Y113.26 E45.81543
G1 X121.809 Y113.19
M204 S5000
M205 X30 Y30
G0 F7200 X121.809 Y113.2
G0 X121.83 Y121.83
G0 X121.9 Y121.9
M204 S500
M205 X20 Y20
;TYPE:WALL-INNER
G1 F1200 X113.1 Y121.9 E46.25447
G1 X113.1 Y113.1 E46.6935
G1 X121.9 Y113.1 E47.13254
G1 X121.9 Y121.9 E47.57157
M204 S5000
M205 X30 Y30
G0 F7200 X122.3 Y122.3
M204 S500
M205 X20 Y20
;TYPE:WALL-OUTER
G1 F600 X112.7 Y122.3 E48.05052
G1 X112.7 Y112.7 E48.52946
G1 X122.3 Y112.7 E49.00841
G1 X122.3 Y122.3 E49.48735
M204 S5000
M205 X30 Y30
G0 F7200 X122.1 Y122.3
G0 X121.5 Y121.618
;MESH:NONMESH
G0 X113.259 Y113.259
;TIME_ELAPSED:66.775721
;LAYER:7
G91; Put in relative mode
G1 F3000 E-13; retract
G90; Put in absolute mode
G1 F9000 X0 Y232.0; Back Home
G4 P500; WaitG90; Put back in absolute mode
;MESH:xyzCalibration_cube.stl
G0 X113.259 Y113.259 Z2.4
M204 S500
M205 X20 Y20
;TYPE:FILL
G1 F1200 X121.739 Y121.739 E50.08566
G1 X121.809 Y121.809
M204 S5000
M205 X30 Y30
G0 F7200 X121.8 Y121.809
G0 X113.26 Y121.739
M204 S500
M205 X20 Y20
G1 F1200 X121.739 Y113.26 E50.6839
G1 X121.809 Y113.19
M204 S5000
M205 X30 Y30
G0 F7200 X121.809 Y113.2
G0 X121.83 Y121.83
G0 X121.9 Y121.9
M204 S500
M205 X20 Y20
;TYPE:WALL-INNER
G1 F1200 X113.1 Y121.9 E51.12294
G1 X113.1 Y113.1 E51.56197
G1 X121.9 Y113.1 E52.001
G1 X121.9 Y121.9 E52.44004
M204 S5000
M205 X30 Y30
G0 F7200 X122.3 Y122.3
M204 S500
M205 X20 Y20
;TYPE:WALL-OUTER
G1 F600 X112.7 Y122.3 E52.91898
G1 X112.7 Y112.7 E53.39793
G1 X122.3 Y112.7 E53.87688
G1 X122.3 Y122.3 E54.35582
M204 S5000
M205 X30 Y30
G0 F7200 X122.1 Y122.3
G0 X121.5 Y121.618
;MESH:NONMESH
G0 X113.259 Y113.259
;TIME_ELAPSED:74.074484
;LAYER:8
G91; Put in relative mode
G1 F3000 E-13; retract
G90; Put in absolute mode
G1 F9000 X0 Y232.0; Back Home
G4 P500; WaitG90; Put back in absolute mode
;MESH:xyzCalibration_cube.stl
G0 X113.259 Y113.259 Z2.7
M204 S500
M205 X20 Y20
;TYPE:FILL
G1 F1200 X121.739 Y121.739 E54.95413
G1 X121.809 Y121.809
M204 S5000
M205 X30 Y30
G0 F7200 X121.8 Y121.809
G0 X113.26 Y121.739
M204 S500
M205 X20 Y20
G1 F1200 X121.739 Y113.26 E55.55237
G1 X121.809 Y113.19
M204 S5000
M205 X30 Y30
G0 F7200 X121.809 Y113.2
G0 X121.83 Y121.83
G0 X121.9 Y121.9
M204 S500
M205 X20 Y20
;TYPE:WALL-INNER
G1 F1200 X113.1 Y121.9 E55.9914
G1 X113.1 Y113.1 E56.43044
G1 X121.9 Y113.1 E56.86947
G1 X121.9 Y121.9 E57.30851
M204 S5000
M205 X30 Y30
G0 F7200 X122.3 Y122.3
M204 S500
M205 X20 Y20
;TYPE:WALL-OUTER
G1 F600 X112.7 Y122.3 E57.78745
G1 X112.7 Y112.7 E58.2664
G1 X122.3 Y112.7 E58.74534
G1 X122.3 Y122.3 E59.22429
M204 S5000
M205 X30 Y30
G0 F7200 X122.1 Y122.3
G0 X121.5 Y121.618
;MESH:NONMESH
G0 X113.259 Y113.259
;TIME_ELAPSED:81.373247
;LAYER:9
G91; Put in relative mode
G1 F3000 E-13; retract
G90; Put in absolute mode
G1 F9000 X0 Y232.0; Back Home
G4 P500; WaitG90; Put back in absolute mode
;MESH:xyzCalibration_cube.stl
G0 X113.259 Y113.259 Z3
M204 S500
M205 X20 Y20
;TYPE:FILL
G1 F1200 X121.739 Y121.739 E59.8226
G1 X121.809 Y121.809
M204 S5000
M205 X30 Y30
G0 F7200 X121.8 Y121.809
G0 X113.26 Y121.739
M204 S500
M205 X20 Y20
G1 F1200 X121.739 Y113.26 E60.42084
G1 X121.809 Y113.19
M204 S5000
M205 X30 Y30
G0 F7200 X121.809 Y113.2
G0 X121.83 Y121.83
G0 X121.9 Y121.9
M204 S500
M205 X20 Y20
;TYPE:WALL-INNER
G1 F1200 X113.1 Y121.9 E60.85987
G1 X113.1 Y113.1 E61.29891
G1 X121.9 Y113.1 E61.73794
G1 X121.9 Y121.9 E62.17697
M204 S5000
M205 X30 Y30
G0 F7200 X122.3 Y122.3
M204 S500
M205 X20 Y20
;TYPE:WALL-OUTER
G1 F600 X112.7 Y122.3 E62.65592
G1 X112.7 Y112.7 E63.13487
G1 X122.3 Y112.7 E63.61381
G1 X122.3 Y122.3 E64.09276
M204 S5000
M205 X30 Y30
G0 F7200 X122.1 Y122.3
G0 X121.5 Y121.618
;MESH:NONMESH
G0 X113.259 Y113.259
;TIME_ELAPSED:88.672009
;LAYER:10
G91; Put in relative mode
G1 F3000 E-13; retract
G90; Put in absolute mode
G1 F9000 X0 Y232.0; Back Home
G4 P500; WaitG90; Put back in absolute mode
;MESH:xyzCalibration_cube.stl
G0 X113.259 Y113.259 Z3.3
M204 S500
M205 X20 Y20
;TYPE:FILL
G1 F1200 X121.739 Y121.739 E64.69107
G1 X121.809 Y121.809
M204 S5000
M205 X30 Y30
G0 F7200 X121.8 Y121.809
G0 X113.26 Y121.739
M204 S500
M205 X20 Y20
G1 F1200 X121.739 Y113.26 E65.28931
G1 X121.809 Y113.19
M204 S5000
M205 X30 Y30
G0 F7200 X121.809 Y113.2
G0 X121.83 Y121.83
G0 X121.9 Y121.9
M204 S500
M205 X20 Y20
;TYPE:WALL-INNER
G1 F1200 X113.1 Y121.9 E65.72834
G1 X113.1 Y113.1 E66.16737
G1 X121.9 Y113.1 E66.60641
G1 X121.9 Y121.9 E67.04544
M204 S5000
M205 X30 Y30
G0 F7200 X122.3 Y122.3
M204 S500
M205 X20 Y20
;TYPE:WALL-OUTER
G1 F600 X112.7 Y122.3 E67.52439
G1 X112.7 Y112.7 E68.00333
G1 X122.3 Y112.7 E68.48228
G1 X122.3 Y122.3 E68.96123
M204 S5000
M205 X30 Y30
G0 F7200 X122.1 Y122.3
G0 X121.5 Y121.618
;MESH:NONMESH
G0 X113.259 Y113.259
;TIME_ELAPSED:95.970772
;LAYER:11
G91; Put in relative mode
G1 F3000 E-13; retract
G90; Put in absolute mode
G1 F9000 X0 Y232.0; Back Home
G4 P500; WaitG90; Put back in absolute mode
;MESH:xyzCalibration_cube.stl
G0 X113.259 Y113.259 Z3.6
M204 S500
M205 X20 Y20
;TYPE:FILL
G1 F1200 X121.739 Y121.739 E69.55954
G1 X121.809 Y121.809
M204 S5000
M205 X30 Y30
G0 F7200 X121.8 Y121.809
G0 X113.26 Y121.739
M204 S500
M205 X20 Y20
G1 F1200 X121.739 Y113.26 E70.15777
G1 X121.809 Y113.19
M204 S5000
M205 X30 Y30
G0 F7200 X121.809 Y113.2
G0 X121.83 Y121.83
G0 X121.9 Y121.9
